iman-keangkasa/ws_thesis_for_OODDPG/writing_papers/resampling_planning_in_dynamic_environment/figures/data/pj_test_export2.csv
__time,/joint_states/header/seq,/joint_states/header/stamp,/joint_states/joint1/effort,/joint_states/joint1/position,/joint_states/joint1/velocity,/joint_states/joint2/effort,/joint_states/joint2/position,/joint_states/joint2/velocity,/joint_states/joint3/effort,/joint_states/joint3/position,/joint_states/joint3/velocity,/joint_states/joint4/effort,/joint_states/joint4/position,/joint_states/joint4/velocity,/joint_states/joint5/effort,/joint_states/joint5/position,/joint_states/joint5/velocity,/joint_states/joint6/effort,/joint_states/joint6/position,/joint_states/joint6/velocity
1664545410.210550,14512.000000,1664545410.209576,-131.000000,0.394099,-0.610516,-45.000000,1.745355,0.059690,-626.000000,0.605669,-0.079587,-131.809998,1.193437,0.503597,199.059998,0.357418,-1.079137,131.809998,-1.107534,-0.887290
1664545410.230117,14513.000000,1664545410.229605,-131.000000,0.381697,-0.624130,-43.000000,1.746564,0.059690,-610.000000,0.603888,-0.084823,-126.430000,1.204175,0.503597,204.440002,0.335942,-1.079137,126.430000,-1.127476,-0.935252
1664545410.250751,14514.000000,1664545410.249604,-121.000000,0.369025,-0.637743,-52.000000,1.747805,0.062832,-628.000000,0.602190,-0.079587,-153.330002,1.216447,0.503597,212.510010,0.314466,-1.103118,115.670006,-1.144350,-0.935252
1664545410.270396,14515.000000,1664545410.269596,-121.000000,0.356187,-0.645074,-61.000000,1.749089,0.065973,-623.000000,0.600430,-0.089012,-166.779999,1.227185,0.527578,169.470001,0.289922,-1.103118,121.050003,-1.164292,-0.935252
1664545410.290243,14516.000000,1664545410.289613,-125.000000,0.343143,-0.653451,-62.000000,1.750392,0.063879,-624.000000,0.598691,-0.090059,-161.400009,1.240991,0.575540,185.610001,0.266913,-1.127099,118.360001,-1.182699,-0.935252
1664545410.310189,14517.000000,1664545410.309600,-131.000000,0.329902,-0.667065,-49.000000,1.751696,0.065973,-625.000000,0.596890,-0.092153,-145.260010,1.253262,0.623501,156.020004,0.243903,-1.151080,118.360001,-1.202641,-0.959233
1664545410.330261,14518.000000,1664545410.329626,-141.000000,0.316443,-0.681726,-46.000000,1.753036,0.068068,-613.000000,0.595026,-0.095295,-126.430000,1.262466,0.599521,169.470001,0.219359,-1.175060,112.980003,-1.222583,-0.959233
1664545410.350199,14519.000000,1664545410.349641,-133.000000,0.302632,-0.697434,-70.000000,1.754415,0.070162,-614.000000,0.593131,-0.094248,-126.430000,1.273204,0.575540,166.779999,0.194816,-1.199041,123.740005,-1.244058,-0.983214
1664545410.370257,14520.000000,1664545410.369654,-108.000000,0.288553,-0.708953,-95.000000,1.755837,0.071209,-625.000000,0.591206,-0.095295,-164.089996,1.287010,0.551559,169.470001,0.171806,-1.199041,134.500000,-1.264000,-0.983214
1664545410.390245,14521.000000,1664545410.389740,-125.000000,0.274307,-0.717330,-54.000000,1.757253,0.072257,-609.000000,0.589301,-0.103673,-169.470001,1.300816,0.575540,158.710007,0.147262,-1.199041,110.290001,-1.283942,-0.983214
1664545410.410936,14522.000000,1664545410.409720,-131.000000,0.259948,-0.716283,-57.000000,1.758706,0.073304,-622.000000,0.587334,-0.095295,-126.430000,1.311554,0.599521,169.470001,0.122718,-1.199041,115.670006,-1.305418,-1.007195
1664545410.430899,14523.000000,1664545410.429722,-129.000000,0.245340,-0.734086,-64.000000,1.760204,0.075398,-609.000000,0.585305,-0.108909,-129.119995,1.322291,0.599521,182.919998,0.096641,-1.223022,123.740005,-1.326893,-1.031175
1664545410.450487,14524.000000,1664545410.449757,-122.000000,0.230484,-0.750841,-75.000000,1.761739,0.078540,-611.000000,0.583255,-0.097389,-139.880005,1.336097,0.575540,182.919998,0.070563,-1.247003,121.050003,-1.346835,-1.031175
1664545410.470011,14525.000000,1664545410.469715,-129.000000,0.215379,-0.759218,-32.000000,1.763261,0.076445,-623.000000,0.581267,-0.103673,-166.779999,1.349903,0.575540,134.500000,0.046019,-1.247003,145.260010,-1.369845,-1.031175
1664545410.490340,14526.000000,1664545410.489746,-128.000000,0.200047,-0.761313,-69.000000,1.764834,0.079587,-641.000000,0.579290,-0.095295,-142.570007,1.360641,0.599521,134.500000,0.019942,-1.247003,126.430000,-1.391321,-1.079137
1664545410.510177,14527.000000,1664545410.509790,-123.000000,0.184518,-0.778068,-15.000000,1.766419,0.077493,-652.000000,0.577333,-0.099484,-177.540009,1.374447,0.599521,112.980003,-0.003068,-1.247003,139.880005,-1.414330,-1.103118
1664545410.530247,14528.000000,1664545410.529779,-152.000000,0.168885,-0.787493,-61.000000,1.768054,0.082729,-648.000000,0.575242,-0.106814,-174.850006,1.388253,0.623501,166.779999,-0.032214,-1.247003,129.119995,-1.435806,-1.103118
1664545410.550488,14529.000000,1664545410.549806,-167.000000,0.153097,-0.790634,-24.000000,1.769683,0.081681,-647.000000,0.573089,-0.113097,-174.850006,1.400524,0.647482,139.880005,-0.059825,-1.294965,139.880005,-1.458816,-1.103118
1664545410.571164,14530.000000,1664545410.569869,-159.000000,0.136947,-0.815767,-43.000000,1.771343,0.084823,-655.000000,0.570914,-0.103673,-147.949997,1.412796,0.647482,166.779999,-0.087437,-1.342926,121.050003,-1.480291,-1.103118
1664545410.590765,14531.000000,1664545410.589907,-133.000000,0.120486,-0.829381,-47.000000,1.773041,0.086917,-664.000000,0.568720,-0.112050,-150.639999,1.425068,0.623501,150.639999,-0.111981,-1.366907,88.770004,-1.501767,-1.079137
1664545410.610854,14532.000000,1664545410.609893,-133.000000,0.103807,-0.841947,-20.000000,1.774764,0.084823,-676.000000,0.566597,-0.104720,-112.980003,1.437340,0.623501,174.850006,-0.138058,-1.342926,99.529999,-1.521709,-1.055156
1664545410.630807,14533.000000,1664545410.629925,-139.000000,0.087067,-0.840900,-23.000000,1.776487,0.086917,-665.000000,0.564340,-0.111003,-196.370010,1.449612,0.623501,161.400009,-0.164136,-1.318945,115.670006,-1.543185,-1.055156
1664545410.650738,14534.000000,1664545410.649872,-142.000000,0.070192,-0.844041,-42.000000,1.778248,0.089012,-696.000000,0.562187,-0.108909,-166.779999,1.463418,0.623501,161.400009,-0.190214,-1.294965,91.459999,-1.563126,-1.055156
1664545410.670425,14535.000000,1664545410.669918,-128.000000,0.053089,-0.856608,-31.000000,1.780021,0.090059,-681.000000,0.559899,-0.113097,-145.260010,1.475690,0.623501,166.779999,-0.214757,-1.270984,96.840004,-1.583068,-1.031175
1664545410.690300,14536.000000,1664545410.689878,-123.000000,0.035800,-0.867080,-20.000000,1.781812,0.089012,-675.000000,0.557518,-0.119381,-153.330002,1.487961,0.623501,153.330002,-0.240835,-1.247003,83.389999,-1.604544,-1.007195
1664545410.710633,14537.000000,1664545410.709909,-114.000000,0.018387,-0.875457,-33.000000,1.783611,0.090059,-688.000000,0.555189,-0.114145,-185.610001,1.500233,0.599521,126.430000,-0.263845,-1.247003,86.080002,-1.622952,-1.007195
1664545410.730569,14538.000000,1664545410.729911,-126.000000,0.000952,-0.869174,-17.000000,1.785421,0.090059,-671.000000,0.552766,-0.123569,-139.880005,1.510971,0.599521,156.020004,-0.286854,-1.223022,78.010002,-1.644427,-0.983214
1664545410.750350,14539.000000,1664545410.749928,-154.000000,-0.016482,-0.875457,-43.000000,1.787257,0.090059,-648.000000,0.550281,-0.129853,-145.260010,1.523243,0.575540,156.020004,-0.311398,-1.199041,94.150002,-1.664369,-0.983214
1664545410.770574,14540.000000,1664545410.769937,-147.000000,-0.034123,-0.881740,-48.000000,1.789093,0.093201,-645.000000,0.547755,-0.123569,-137.190002,1.533981,0.551559,185.610001,-0.334408,-1.175060,59.180000,-1.682777,-0.983214
1664545410.790968,14541.000000,1664545410.789965,-121.000000,-0.052064,-0.899543,-84.000000,1.790960,0.096342,-635.000000,0.545281,-0.123569,-126.430000,1.544719,0.551559,137.190002,-0.358952,-1.151080,53.800003,-1.702719,-0.959233
1664545410.810549,14542.000000,1664545410.810005,-132.000000,-0.069995,-0.896401,-74.000000,1.792814,0.094248,-654.000000,0.542869,-0.126711,-126.430000,1.555457,0.551559,153.330002,-0.381961,-1.127099,67.250000,-1.721126,-0.959233
1664545410.830518,14543.000000,1664545410.830016,-131.000000,-0.087916,-0.896401,-41.000000,1.794669,0.091106,-648.000000,0.540394,-0.127758,-131.809998,1.566194,0.527578,166.779999,-0.403437,-1.127099,83.389999,-1.739534,-0.935252
1664545410.850693,14544.000000,1664545410.850032,-125.000000,-0.105878,-0.903732,-63.000000,1.796511,0.092153,-635.000000,0.537972,-0.127758,-134.500000,1.575398,0.503597,156.020004,-0.426447,-1.127099,86.080002,-1.759476,-0.935252
1664545410.870729,14545.000000,1664545410.870078,-127.000000,-0.123933,-0.910015,-84.000000,1.798365,0.093201,-636.000000,0.535549,-0.123569,-161.400009,1.587670,0.503597,153.330002,-0.447922,-1.103118,86.080002,-1.777884,-0.935252
1664545410.891162,14546.000000,1664545410.890100,-129.000000,-0.142019,-0.906873,-82.000000,1.800232,0.092153,-653.000000,0.533158,-0.119381,-126.430000,1.598408,0.503597,161.400009,-0.469398,-1.079137,107.600006,-1.794758,-0.911271
1664545410.911019,14547.000000,1664545410.910084,-128.000000,-0.160126,-0.900590,-39.000000,1.802055,0.092153,-644.000000,0.530766,-0.123569,-150.639999,1.609146,0.527578,172.160004,-0.490874,-1.055156,107.600006,-1.813165,-0.887290
1664545410.930985,14548.000000,1664545410.930103,-141.000000,-0.178161,-0.895354,-46.000000,1.803904,0.089012,-648.000000,0.528323,-0.117286,-112.980003,1.618350,0.527578,182.919998,-0.512350,-1.055156,110.290001,-1.830039,-0.863310
1664545410.950974,14549.000000,1664545410.950116,-125.000000,-0.195305,-0.903732,-97.000000,1.805796,0.096342,-639.000000,0.525952,-0.112050,-142.570007,1.630622,0.527578,161.400009,-0.533825,-1.055156,121.050003,-1.848447,-0.887290
1664545410.970865,14550.000000,1664545410.970134,-119.000000,-0.214375,-0.908968,-82.000000,1.807638,0.093201,-662.000000,0.523675,-0.113097,-137.190002,1.639825,0.527578,185.610001,-0.555301,-1.055156,121.050003,-1.865321,-0.887290
1664545410.990992,14551.000000,1664545410.990107,-105.000000,-0.231664,-0.911062,-87.000000,1.809505,0.092153,-625.000000,0.521273,-0.120428,-129.119995,1.650563,0.503597,166.779999,-0.576777,-1.055156,123.740005,-1.883729,-0.863310
1664545411.010893,14552.000000,1664545411.010137,-113.000000,-0.249668,-0.900590,-108.000000,1.811372,0.093201,-628.000000,0.518830,-0.125664,-129.119995,1.661301,0.503597,169.470001,-0.595185,-1.031175,123.740005,-1.900602,-0.839329
1664545411.030870,14553.000000,1664545411.030123,-130.000000,-0.267568,-0.893260,-99.000000,1.813220,0.091106,-656.000000,0.516469,-0.118333,-112.980003,1.670505,0.503597,153.330002,-0.615126,-1.031175,115.670006,-1.915942,-0.839329
1664545411.050576,14554.000000,1664545411.050177,-138.000000,-0.285457,-0.896401,-95.000000,1.815037,0.091106,-649.000000,0.514140,-0.115192,-134.500000,1.679709,0.479616,182.919998,-0.635068,-0.983214,129.119995,-1.934350,-0.815348
1664545411.070646,14555.000000,1664545411.070214,-132.000000,-0.303368,-0.890118,-78.000000,1.816860,0.091106,-634.000000,0.511748,-0.121475,-104.910004,1.687379,0.479616,172.160004,-0.655010,-0.959233,118.360001,-1.949690,-0.815348
1664545411.080987,14556.000000,1664545411.080201,-120.000000,-0.312343,-0.895354,-98.000000,1.817781,0.092153,-624.000000,0.510527,-0.121475,-142.570007,1.693515,0.455636,158.710007,-0.664214,-0.959233,96.840004,-1.957360,-0.815348
1664545411.100665,14557.000000,1664545411.100219,-123.000000,-0.330171,-0.888024,-87.000000,1.819604,0.090059,-630.000000,0.508177,-0.123569,-110.290001,1.702719,0.455636,150.639999,-0.684155,-0.959233,18.830000,-1.972699,-0.767386
1664545411.131047,14558.000000,1664545411.130229,-146.000000,-0.356653,-0.878599,-102.000000,1.822317,0.089012,-643.000000,0.504729,-0.111003,-129.119995,1.716525,0.455636,182.919998,-0.711767,-0.935252,88.770004,-1.994175,-0.743406
1664545411.140652,14559.000000,1664545411.140242,-143.000000,-0.365432,-0.874410,-114.000000,1.823226,0.091106,-645.000000,0.503580,-0.108909,-123.740005,1.721126,0.455636,164.089996,-0.720971,-0.935252,78.010002,-2.001845,-0.743406
1664545411.160993,14560.000000,1664545411.160259,-118.000000,-0.383146,-0.884882,-82.000000,1.825030,0.090059,-625.000000,0.501240,-0.119381,-107.600006,1.730330,0.455636,139.880005,-0.739379,-0.911271,99.529999,-2.017185,-0.743406
1664545411.180624,14561.000000,1664545411.180267,-106.000000,-0.400808,-0.874410,-83.000000,1.826697,0.089012,-624.000000,0.498942,-0.117286,-110.290001,1.739534,0.455636,156.020004,-0.756253,-0.887290,88.770004,-2.032525,-0.743406
1664545411.200775,14562.000000,1664545411.200261,-103.000000,-0.418325,-0.872316,-80.000000,1.828532,0.089012,-665.000000,0.496809,-0.104720,-102.220001,1.747204,0.431655,177.540009,-0.774660,-0.863310,0.000000,-2.046330,-0.743406
1664545411.221421,14563.000000,1664545411.220348,-98.000000,-0.435614,-0.864985,-55.000000,1.830268,0.087965,-651.000000,0.494604,-0.111003,-94.150002,1.754874,0.407674,134.500000,-0.790000,-0.863310,-16.139999,-2.061670,-0.719425
1664545411.241168,14564.000000,1664545411.240333,-102.000000,-0.452748,-0.857655,-52.000000,1.831922,0.089012,-627.000000,0.492337,-0.117286,-94.150002,1.762544,0.407674,193.680008,-0.806874,-0.839329,13.450001,-2.073942,-0.695444
1664545411.261055,14565.000000,1664545411.260323,-106.000000,-0.469757,-0.844041,-44.000000,1.833632,0.085870,-647.000000,0.490101,-0.111003,-88.770004,1.770214,0.407674,139.880005,-0.822214,-0.815348,10.760000,-2.087748,-0.671463
1664545411.281092,14566.000000,1664545411.280389,-102.000000,-0.486643,-0.839853,-37.000000,1.835343,0.084823,-642.000000,0.487916,-0.109956,-88.770004,1.779418,0.383693,158.710007,-0.840621,-0.815348,13.450001,-2.100020,-0.647482
1664545411.311072,14567.000000,1664545411.310393,-121.000000,-0.511614,-0.825192,-67.000000,1.837924,0.083776,-622.000000,0.484531,-0.111003,-88.770004,1.790156,0.383693,174.850006,-0.863631,-0.791367,91.459999,-2.121495,-0.647482
1664545411.331033,14568.000000,1664545411.330377,-141.000000,-0.527888,-0.807389,-43.000000,1.839603,0.083776,-636.000000,0.482346,-0.105767,-94.150002,1.797826,0.383693,169.470001,-0.878971,-0.767386,67.250000,-2.133767,-0.647482
1664545411.350088,14569.000000,1664545411.349430,-129.000000,-0.544173,-0.811578,-94.000000,1.841295,0.083776,-624.000000,0.480203,-0.114145,-86.080002,1.805495,0.383693,131.809998,-0.892777,-0.767386,43.040001,-2.144505,-0.647482
1664545411.370015,14570.000000,1664545411.369458,-102.000000,-0.560437,-0.815767,-62.000000,1.842948,0.083776,-635.000000,0.478102,-0.101578,-88.770004,1.811631,0.359712,121.050003,-0.909651,-0.767386,32.279999,-2.156777,-0.623501
1664545411.390345,14571.000000,1664545411.389446,-113.000000,-0.576515,-0.802153,-58.000000,1.844590,0.080634,-647.000000,0.476073,-0.103673,-86.080002,1.819301,0.359712,123.740005,-0.923456,-0.743406,53.800003,-2.169049,-0.599521
1664545411.410328,14572.000000,1664545411.409391,-119.000000,-0.592345,-0.781209,-74.000000,1.846225,0.080634,-647.000000,0.474116,-0.096342,-72.630005,1.826971,0.359712,172.160004,-0.937262,-0.719425,51.110001,-2.181321,-0.575540
1664545411.430185,14573.000000,1664545411.429490,-125.000000,-0.607988,-0.772832,-71.000000,1.847835,0.080634,-641.000000,0.472097,-0.103673,-69.940002,1.831573,0.335732,83.389999,-0.951068,-0.695444,56.490002,-2.192059,-0.551559
1664545411.450447,14574.000000,1664545411.449501,-97.000000,-0.623496,-0.779115,-76.000000,1.849439,0.080634,-642.000000,0.470016,-0.102625,-67.250000,1.837709,0.335732,115.670006,-0.964874,-0.671463,45.730000,-2.202796,-0.551559
1664545411.470030,14575.000000,1664545411.469505,-100.000000,-0.638787,-0.762360,-45.000000,1.850999,0.076445,-642.000000,0.467966,-0.098437,-67.250000,1.843845,0.311751,83.389999,-0.978680,-0.647482,43.040001,-2.213534,-0.551559
1664545411.490540,14576.000000,1664545411.489510,-102.000000,-0.653902,-0.748746,-73.000000,1.852547,0.077493,-654.000000,0.466030,-0.095295,-61.870003,1.849981,0.311751,75.320000,-0.990952,-0.647482,29.590000,-2.224272,-0.527578
1664545411.509915,14577.000000,1664545411.509496,-87.000000,-0.668821,-0.738274,-21.000000,1.854069,0.073304,-647.000000,0.464063,-0.094248,-75.320000,1.857651,0.311751,56.490002,-1.001689,-0.623501,24.210001,-2.233476,-0.503597
1664545411.530546,14578.000000,1664545411.529581,-98.000000,-0.683418,-0.721519,-90.000000,1.855604,0.075398,-683.000000,0.462283,-0.079587,-69.940002,1.862253,0.311751,86.080002,-1.013961,-0.599521,-64.559998,-2.242680,-0.479616
1664545411.550143,14579.000000,1664545411.549557,-120.000000,-0.697622,-0.701622,-77.000000,1.857102,0.073304,-677.000000,0.460471,-0.086917,-72.630005,1.868389,0.287770,75.320000,-1.024699,-0.575540,-21.520000,-2.251884,-0.455636
1664545411.570217,14580.000000,1664545411.569514,-125.000000,-0.711661,-0.695339,-73.000000,1.858562,0.072257,-659.000000,0.458545,-0.095295,-96.840004,1.874525,0.287770,18.830000,-1.035437,-0.551559,0.000000,-2.261088,-0.455636
1664545411.590489,14581.000000,1664545411.589596,-86.000000,-0.725637,-0.694292,-67.000000,1.859996,0.072257,-631.000000,0.456682,-0.101578,-56.490002,1.879127,0.263789,24.210001,-1.047709,-0.551559,8.070000,-2.270292,-0.455636
1664545411.609933,14582.000000,1664545411.609534,-94.000000,-0.739416,-0.684867,-98.000000,1.861444,0.072257,-653.000000,0.454808,-0.083776,-80.700005,1.885262,0.263789,48.420002,-1.058447,-0.527578,-102.220001,-2.281029,-0.455636
1664545411.630206,14583.000000,1664545411.629586,-100.000000,-0.752896,-0.660782,-111.000000,1.862859,0.069115,-642.000000,0.452882,-0.095295,-51.110001,1.889864,0.263789,21.520000,-1.067651,-0.527578,-234.029999,-2.287165,-0.431655
1664545411.650411,14584.000000,1664545411.649571,-86.000000,-0.766054,-0.658687,-112.000000,1.864238,0.070162,-646.000000,0.451164,-0.087965,-48.420002,1.894466,0.239808,75.320000,-1.076855,-0.503597,-121.050003,-2.294835,-0.383693
1664545411.670512,14585.000000,1664545411.669640,-94.000000,-0.778892,-0.633555,-94.000000,1.865597,0.065973,-635.000000,0.449445,-0.091106,-34.970001,1.897534,0.215827,56.490002,-1.086058,-0.479616,-123.740005,-2.300971,-0.359712
1664545411.690193,14586.000000,1664545411.689673,-79.000000,-0.791491,-0.623083,-119.000000,1.866932,0.068068,-636.000000,0.447758,-0.085870,-29.590000,1.902136,0.215827,-32.279999,-1.092194,-0.431655,-236.720001,-2.307107,-0.335732
1664545411.710204,14587.000000,1664545411.709660,-81.000000,-0.803769,-0.610516,-133.000000,1.868254,0.065973,-649.000000,0.446205,-0.083776,-8.070000,1.903670,0.191847,32.279999,-1.099864,-0.407674,-107.600006,-2.313243,-0.311751
1664545411.730396,14588.000000,1664545411.729681,-89.000000,-0.815737,-0.593761,-113.000000,1.869526,0.061785,-645.000000,0.444548,-0.085870,-13.450001,1.906738,0.167866,-32.279999,-1.107534,-0.359712,-67.250000,-2.317845,-0.287770
1664545411.750722,14589.000000,1664545411.749678,-80.000000,-0.827343,-0.573864,-101.000000,1.870741,0.060737,-653.000000,0.442995,-0.075398,-8.070000,1.909806,0.143885,-158.710007,-1.112136,-0.335732,-37.660000,-2.322447,-0.263789
1664545411.770315,14590.000000,1664545411.769711,-73.000000,-0.838648,-0.557109,-108.000000,1.871944,0.058643,-644.000000,0.441370,-0.079587,-8.070000,1.912874,0.143885,-215.200012,-1.118272,-0.311751,-24.210001,-2.328583,-0.239808
1664545411.790331,14591.000000,1664545411.789733,-65.000000,-0.849611,-0.544543,-136.000000,1.873134,0.059690,-649.000000,0.439796,-0.067021,0.000000,1.917476,0.119904,-139.880005,-1.122874,-0.287770,-78.010002,-2.333185,-0.239808
1664545411.810511,14592.000000,1664545411.809760,-90.000000,-0.860005,-0.505796,-112.000000,1.874294,0.056549,-624.000000,0.438285,-0.074351,-5.380000,1.920544,0.119904,-228.650009,-1.130544,-0.263789,-80.700005,-2.337787,-0.239808
1664545411.830217,14593.000000,1664545411.829753,-79.000000,-0.870172,-0.504749,-134.000000,1.875415,0.053407,-618.000000,0.436784,-0.072257,-29.590000,1.922078,0.119904,-134.500000,-1.135146,-0.263789,-78.010002,-2.342389,-0.215827
1664545411.850872,14594.000000,1664545411.849820,-85.000000,-0.880017,-0.485900,-108.000000,1.876486,0.053407,-640.000000,0.435469,-0.067021,0.000000,1.925146,0.119904,-153.330002,-1.141282,-0.263789,-72.630005,-2.346991,-0.215827
1664545411.870580,14595.000000,1664545411.869825,-84.000000,-0.889542,-0.470192,-113.000000,1.877551,0.053407,-631.000000,0.434113,-0.067021,0.000000,1.926680,0.119904,-118.360001,-1.145884,-0.263789,-86.080002,-2.350059,-0.215827
1664545411.890609,14596.000000,1664545411.889788,-61.000000,-0.898777,-0.454484,-129.000000,1.878604,0.052360,-623.000000,0.432736,-0.065973,-13.450001,1.929748,0.119904,-121.050003,-1.150486,-0.263789,-56.490002,-2.354661,-0.191847
1664545411.910261,14597.000000,1664545411.909817,-69.000000,-0.907649,-0.445059,-150.000000,1.879632,0.052360,-638.000000,0.431504,-0.061785,-13.450001,1.932816,0.095923,-48.420002,-1.155088,-0.239808,-72.630005,-2.357728,-0.191847
1664545411.930332,14598.000000,1664545411.929837,-70.000000,-0.916097,-0.412596,-147.000000,1.880646,0.050265,-609.000000,0.430127,-0.067021,0.000000,1.934350,0.095923,-59.180000,-1.159690,-0.215827,-61.870003,-2.362330,-0.167866
1664545411.950439,14599.000000,1664545411.949825,-67.000000,-0.924193,-0.401077,-130.000000,1.881611,0.048171,-610.000000,0.428802,-0.064926,0.000000,1.935884,0.095923,-18.830000,-1.164292,-0.215827,-10.760000,-2.365398,-0.167866
1664545411.970300,14600.000000,1664545411.969839,-59.000000,-0.931916,-0.379086,-125.000000,1.882564,0.049218,-626.000000,0.427632,-0.054454,0.000000,1.937418,0.095923,-2.690000,-1.167359,-0.191847,-13.450001,-2.366932,-0.143885
1664545411.990651,14601.000000,1664545411.989887,-79.000000,-0.939287,-0.362330,-136.000000,1.883491,0.045029,-592.000000,0.426359,-0.067021,0.000000,1.938952,0.095923,-80.700005,-1.170427,-0.191847,0.000000,-2.370000,-0.119904
1664545412.010737,14602.000000,1664545412.009855,-77.000000,-0.946286,-0.341386,-127.000000,1.884355,0.041888,-598.000000,0.425137,-0.053407,10.760000,1.940486,0.071942,-8.070000,-1.173495,-0.167866,0.000000,-2.371534,-0.095923
1664545412.030715,14603.000000,1664545412.029878,-61.000000,-0.952994,-0.327773,-135.000000,1.885201,0.041888,-620.000000,0.424184,-0.045029,18.830000,1.942020,0.071942,-96.840004,-1.175029,-0.143885,2.690000,-2.373068,-0.095923
1664545412.050523,14604.000000,1664545412.049881,-67.000000,-0.959247,-0.297404,-161.000000,1.886060,0.041888,-626.000000,0.423201,-0.047124,18.830000,1.942020,0.047962,-56.490002,-1.176563,-0.119904,0.000000,-2.374602,-0.071942
1664545412.070735,14605.000000,1664545412.069935,-67.000000,-0.965159,-0.282743,-156.000000,1.886862,0.039794,-616.000000,0.422176,-0.052360,10.760000,1.943554,0.047962,-53.800003,-1.178097,-0.095923,-2.690000,-2.376136,-0.071942
1664545412.090279,14606.000000,1664545412.089925,-51.000000,-0.970697,-0.269130,-150.000000,1.887638,0.038746,-613.000000,0.421213,-0.045029,16.139999,1.943554,0.023981,-26.900002,-1.178097,-0.071942,-13.450001,-2.376136,-0.047962
1664545412.110618,14607.000000,1664545412.109943,-47.000000,-0.975801,-0.243997,-135.000000,1.888353,0.034558,-619.000000,0.420375,-0.045029,18.830000,1.943554,0.023981,-59.180000,-1.179631,-0.047962,-16.139999,-2.376136,0.000000
1664545412.130511,14608.000000,1664545412.129925,-62.000000,-0.980491,-0.228289,-149.000000,1.889054,0.035605,-621.000000,0.419505,-0.041888,29.590000,1.943554,0.000000,-64.559998,-1.179631,-0.047962,-21.520000,-2.376136,0.000000
1664545412.150900,14609.000000,1664545412.149952,-44.000000,-0.984808,-0.211534,-137.000000,1.889725,0.033510,-601.000000,0.418625,-0.049218,26.900002,1.943554,0.000000,-59.180000,-1.179631,-0.023981,-16.139999,-2.376136,0.000000
1664545412.170608,14610.000000,1664545412.169983,-53.000000,-0.988784,-0.195826,-124.000000,1.890357,0.031416,-632.000000,0.417818,-0.033510,21.520000,1.943554,0.000000,-59.180000,-1.179631,0.000000,-16.139999,-2.376136,0.000000
1664545412.190978,14611.000000,1664545412.189959,-51.000000,-0.992397,-0.168599,-139.000000,1.890971,0.031416,-647.000000,0.417227,-0.032463,34.970001,1.945088,0.000000,-59.180000,-1.179631,0.000000,-8.070000,-2.377670,0.000000
1664545412.210485,14612.000000,1664545412.210007,-52.000000,-0.995751,-0.158127,-114.000000,1.891573,0.028274,-653.000000,0.416523,-0.035605,24.210001,1.945088,0.000000,-59.180000,-1.179631,0.000000,-18.830000,-2.376136,0.000000
1664545412.230824,14613.000000,1664545412.230017,-57.000000,-0.998847,-0.146608,-156.000000,1.892187,0.028274,-661.000000,0.415830,-0.030369,13.450001,1.945088,0.000000,-59.180000,-1.179631,0.000000,-10.760000,-2.377670,0.000000
1664545412.250905,14614.000000,1664545412.250008,-69.000000,-1.001652,-0.135088,-148.000000,1.892745,0.027227,-641.000000,0.415126,-0.041888,24.210001,1.943554,0.000000,-59.180000,-1.179631,0.000000,-13.450001,-2.377670,0.000000
1664545412.270342,14615.000000,1664545412.269990,-87.000000,-1.004054,-0.119381,-140.000000,1.893283,0.026180,-625.000000,0.414277,-0.037699,32.279999,1.945088,0.000000,-59.180000,-1.179631,0.000000,-16.139999,-2.376136,0.000000
1664545412.290915,14616.000000,1664545412.290047,-99.000000,-1.006352,-0.108909,-120.000000,1.893785,0.024086,-654.000000,0.413687,-0.025133,16.139999,1.945088,0.000000,-59.180000,-1.179631,0.000000,-13.450001,-2.376136,0.000000
1664545412.310533,14617.000000,1664545412.310045,-107.000000,-1.008495,-0.106814,-136.000000,1.894273,0.023038,-637.000000,0.413055,-0.036652,29.590000,1.945088,0.000000,-61.870003,-1.179631,0.000000,-18.830000,-2.377670,0.000000
1664545412.330584,14618.000000,1664545412.330033,-110.000000,-1.010545,-0.096342,-123.000000,1.894731,0.021991,-638.000000,0.412413,-0.030369,16.139999,1.943554,0.000000,-59.180000,-1.179631,0.000000,-2.690000,-2.376136,0.000000
1664545412.351258,14619.000000,1664545412.350147,-109.000000,-1.012502,-0.096342,-128.000000,1.895194,0.020944,-665.000000,0.411916,-0.018850,2.690000,1.945088,0.000000,-56.490002,-1.179631,0.000000,-8.070000,-2.376136,0.000000
1664545412.370730,14620.000000,1664545412.370143,-98.000000,-1.014345,-0.092153,-121.000000,1.895608,0.020944,-637.000000,0.411368,-0.034558,2.690000,1.945088,0.000000,-80.700005,-1.179631,0.000000,-16.139999,-2.377670,0.000000
1664545412.391153,14621.000000,1664545412.390161,-101.000000,-1.016012,-0.086917,-132.000000,1.896028,0.021991,-638.000000,0.410747,-0.028274,8.070000,1.943554,0.000000,-51.110001,-1.179631,0.000000,-10.760000,-2.376136,0.000000
1664545412.410694,14622.000000,1664545412.410126,-101.000000,-1.017554,-0.076445,-115.000000,1.896429,0.018850,-659.000000,0.410270,-0.017802,13.450001,1.945088,0.000000,-53.800003,-1.179631,0.000000,-10.760000,-2.376136,0.000000
1664545412.431180,14623.000000,1664545412.430184,-118.000000,-1.018941,-0.063879,-108.000000,1.896804,0.018850,-665.000000,0.409877,-0.023038,21.520000,1.943554,0.000000,-53.800003,-1.179631,0.000000,0.000000,-2.376136,0.000000
1664545412.450812,14624.000000,1664545412.450155,-97.000000,-1.020287,-0.068068,-119.000000,1.897174,0.018850,-643.000000,0.409349,-0.029322,26.900002,1.943554,0.000000,-56.490002,-1.179631,0.000000,-5.380000,-2.377670,0.000000
1664545412.470707,14625.000000,1664545412.470168,-98.000000,-1.021561,-0.063879,-111.000000,1.897531,0.017802,-659.000000,0.408893,-0.019897,24.210001,1.945088,0.000000,-56.490002,-1.179631,0.000000,0.000000,-2.376136,0.000000
1664545412.490678,14626.000000,1664545412.490206,-90.000000,-1.022751,-0.055501,-118.000000,1.897882,0.016755,-671.000000,0.408541,-0.018850,24.210001,1.943554,0.000000,-53.800003,-1.179631,0.000000,0.000000,-2.377670,0.000000
1664545412.510900,14627.000000,1664545412.510221,-103.000000,-1.023766,-0.049218,-134.000000,1.898227,0.016755,-686.000000,0.408231,-0.014661,0.000000,1.945088,0.000000,-53.800003,-1.179631,0.000000,0.000000,-2.376136,0.000000
1664545412.530684,14628.000000,1664545412.530211,-104.000000,-1.024708,-0.043982,-130.000000,1.898546,0.015708,-681.000000,0.407869,-0.020944,0.000000,1.945088,0.000000,-51.110001,-1.179631,0.000000,0.000000,-2.376136,0.000000
1664545412.540901,14629.000000,1664545412.540226,-93.000000,-1.025184,-0.046077,-136.000000,1.898690,0.015708,-651.000000,0.407579,-0.034558,5.380000,1.945088,0.000000,-51.110001,-1.181165,0.000000,-13.450001,-2.376136,0.000000
1664545412.561116,14630.000000,1664545412.560261,-89.000000,-1.026033,-0.041888,-148.000000,1.899022,0.015708,-649.000000,0.406989,-0.019897,5.380000,1.945088,0.000000,-26.900002,-1.179631,0.000000,-5.380000,-2.376136,0.000000
1664545412.580791,14631.000000,1664545412.580250,-109.000000,-1.026696,-0.029322,-158.000000,1.899298,0.014661,-664.000000,0.406626,-0.014661,0.000000,1.945088,0.000000,-24.210001,-1.179631,0.000000,0.000000,-2.377670,0.000000
1664545412.601067,14632.000000,1664545412.600262,-129.000000,-1.027141,-0.017802,-122.000000,1.899542,0.011519,-674.000000,0.406347,-0.011519,0.000000,1.945088,0.000000,0.000000,-1.181165,0.000000,0.000000,-2.377670,0.000000
1664545412.621168,14633.000000,1664545412.620279,-121.000000,-1.027544,-0.019897,-129.000000,1.899774,0.010472,-676.000000,0.406077,-0.011519,0.000000,1.943554,0.000000,0.000000,-1.181165,0.000000,0.000000,-2.376136,0.000000
1664545412.641144,14634.000000,1664545412.640335,-100.000000,-1.027907,-0.016755,-128.000000,1.899981,0.009425,-663.000000,0.405777,-0.015708,-18.830000,1.945088,0.000000,5.380000,-1.179631,0.000000,26.900002,-2.376136,0.000000
1664545412.660619,14635.000000,1664545412.660293,-85.000000,-1.028176,-0.008378,-150.000000,1.900181,0.008378,-674.000000,0.405549,-0.006283,0.000000,1.943554,0.000000,0.000000,-1.179631,0.000000,2.690000,-2.374602,0.023981
1664545412.680856,14636.000000,1664545412.680328,-63.000000,-1.028228,0.000000,-143.000000,1.900326,0.005236,-679.000000,0.405425,-0.004189,0.000000,1.942020,0.000000,-18.830000,-1.175029,0.023981,0.000000,-2.373068,0.047962
1664545412.700790,14637.000000,1664545412.700363,-8.000000,-1.028218,0.000000,-128.000000,1.900419,0.003142,-666.000000,0.405270,-0.007330,-24.210001,1.940486,-0.023981,-37.660000,-1.171961,0.047962,-10.760000,-2.370000,0.095923
1664545412.721385,14638.000000,1664545412.720388,34.000000,-1.028041,0.016755,-177.000000,1.900495,0.001047,-658.000000,0.405115,-0.004189,-24.210001,1.938952,-0.047962,-45.730000,-1.167359,0.119904,-10.760000,-2.366932,0.119904
1664545412.740916,14639.000000,1664545412.740348,24.000000,-1.027348,0.043982,-204.000000,1.900495,0.000000,-651.000000,0.405053,-0.001047,-32.279999,1.935884,-0.071942,-59.180000,-1.162758,0.167866,-5.380000,-2.362330,0.143885
1664545412.760839,14640.000000,1664545412.760353,41.000000,-1.026313,0.058643,-264.000000,1.900495,0.000000,-639.000000,0.405042,0.000000,-43.040001,1.934350,-0.095923,-83.389999,-1.158156,0.191847,-10.760000,-2.357728,0.167866
1664545412.790923,14641.000000,1664545412.790397,104.000000,-1.024408,0.063879,-381.000000,1.900463,-0.001047,-610.000000,0.405042,0.000000,-61.870003,1.929748,-0.095923,-75.320000,-1.150486,0.239808,-13.450001,-2.351593,0.215827
1664545412.801214,14642.000000,1664545412.800401,111.000000,-1.023631,0.075398,-424.000000,1.900438,-0.002094,-598.000000,0.405042,0.000000,-56.490002,1.928214,-0.119904,-83.389999,-1.145884,0.239808,-26.900002,-2.348525,0.215827
1664545412.821190,14643.000000,1664545412.820384,135.000000,-1.021861,0.092153,-540.000000,1.900401,-0.002094,-571.000000,0.405042,0.000000,-91.459999,1.925146,-0.119904,-94.150002,-1.141282,0.263789,-21.520000,-2.343923,0.215827
1664545412.849758,14644.000000,1664545412.849406,172.000000,-1.018755,0.111003,-723.000000,1.900319,-0.002094,-522.000000,0.405053,0.000000,-80.700005,1.920544,-0.143885,-86.080002,-1.132078,0.287770,-24.210001,-2.336253,0.239808
1664545412.870057,14645.000000,1664545412.869462,180.000000,-1.016250,0.127758,-853.000000,1.900250,-0.002094,-485.000000,0.405053,0.000000,-48.420002,1.919010,-0.143885,-86.080002,-1.124408,0.287770,-18.830000,-2.330117,0.239808
1664545412.890202,14646.000000,1664545412.889477,173.000000,-1.013392,0.154985,-989.000000,1.900175,-0.003142,-447.000000,0.405063,0.000000,-45.730000,1.915942,-0.119904,-75.320000,-1.119806,0.287770,-13.450001,-2.325515,0.263789
1664545412.910452,14647.000000,1664545412.909496,169.000000,-1.010276,0.153938,-1088.000000,1.900062,-0.006283,-406.000000,0.405073,0.000000,-72.630005,1.911340,-0.119904,-96.840004,-1.112136,0.287770,-21.520000,-2.320913,0.239808
1664545412.930265,14648.000000,1664545412.929466,176.000000,-1.007005,0.163363,-1096.000000,1.899843,-0.012566,-370.000000,0.405135,0.003142,-59.180000,1.908272,-0.119904,-91.459999,-1.106000,0.287770,-21.520000,-2.316311,0.239808
1664545412.950046,14649.000000,1664545412.949526,152.000000,-1.003361,0.189543,-1199.000000,1.899605,-0.010472,-326.000000,0.405208,0.003142,-99.529999,1.903670,-0.143885,-96.840004,-1.098330,0.311751,-48.420002,-2.308641,0.263789
1664545412.970571,14650.000000,1664545412.969555,120.000000,-0.999468,0.195826,-1273.000000,1.899373,-0.011519,-286.000000,0.405291,0.003142,-185.610001,1.900602,-0.143885,-80.700005,-1.092194,0.311751,-43.040001,-2.302505,0.311751
1664545412.990036,14651.000000,1664545412.989546,98.000000,-0.995441,0.198968,-1410.000000,1.899154,-0.009425,-242.000000,0.405405,0.004189,-80.700005,1.896000,-0.167866,-102.220001,-1.084524,0.335732,-43.040001,-2.296369,0.311751
1664545413.010237,14652.000000,1664545413.009557,78.000000,-0.991299,0.207345,-1297.000000,1.898828,-0.021991,-196.000000,0.405539,0.008378,-80.700005,1.892932,-0.167866,-118.360001,-1.073787,0.359712,-43.040001,-2.288699,0.311751
1664545413.030449,14653.000000,1664545413.029534,60.000000,-0.986931,0.220959,-1242.000000,1.898333,-0.024086,-151.000000,0.405705,0.007330,-145.260010,1.888330,-0.191847,-107.600006,-1.064583,0.407674,-43.040001,-2.281029,0.359712
1664545413.050175,14654.000000,1664545413.049545,51.000000,-0.982458,0.229336,-1382.000000,1.897970,-0.016755,-114.000000,0.405943,0.011519,37.660000,1.882195,-0.191847,-115.670006,-1.053845,0.431655,-45.730000,-2.271826,0.407674
1664545413.070059,14655.000000,1664545413.069585,50.000000,-0.977934,0.230383,-1255.000000,1.897494,-0.026180,-105.000000,0.406378,0.026180,-26.900002,1.877593,-0.215827,-145.260010,-1.043107,0.455636,-48.420002,-2.261088,0.455636
1664545413.090107,14656.000000,1664545413.089586,62.000000,-0.973265,0.234572,-1378.000000,1.897049,-0.017802,-94.000000,0.406957,0.032463,10.760000,1.871457,-0.239808,-137.190002,-1.032369,0.503597,-48.420002,-2.251884,0.455636
1664545413.110382,14657.000000,1664545413.109606,80.000000,-0.968492,0.242950,-1234.000000,1.896560,-0.031416,-106.000000,0.407775,0.043982,-69.940002,1.866855,-0.239808,-118.360001,-1.021631,0.503597,-48.420002,-2.244214,0.455636
1664545413.130050,14658.000000,1664545413.129629,99.000000,-0.963564,0.255516,-1287.000000,1.895990,-0.024086,-103.000000,0.408645,0.041888,32.279999,1.860719,-0.239808,-134.500000,-1.010893,0.527578,-40.350002,-2.235010,0.431655
1664545413.150283,14659.000000,1664545413.149624,112.000000,-0.958378,0.262847,-1214.000000,1.895476,-0.030369,-117.000000,0.409577,0.049218,67.250000,1.856117,-0.239808,-147.949997,-0.998622,0.527578,-48.420002,-2.224272,0.455636
1664545413.170172,14660.000000,1664545413.169651,121.000000,-0.952953,0.274366,-1339.000000,1.894956,-0.019897,-114.000000,0.410581,0.048171,80.700005,1.849981,-0.263789,-139.880005,-0.984816,0.551559,-48.420002,-2.213534,0.479616
1664545413.190015,14661.000000,1664545413.189636,149.000000,-0.947404,0.275413,-1279.000000,1.894474,-0.030369,-135.000000,0.411616,0.056549,75.320000,1.843845,-0.263789,-156.020004,-0.972544,0.575540,-61.870003,-2.202796,0.503597
1664545413.210000,14662.000000,1664545413.209661,161.000000,-0.941606,0.293215,-1315.000000,1.893885,-0.024086,-113.000000,0.412589,0.045029,21.520000,1.837709,-0.287770,-126.430000,-0.960272,0.599521,-59.180000,-2.192059,0.527578
1664545413.230463,14663.000000,1664545413.229695,166.000000,-0.935384,0.318348,-1237.000000,1.893302,-0.033510,-122.000000,0.413625,0.051313,72.630005,1.830039,-0.287770,-131.809998,-0.946466,0.599521,-67.250000,-2.181321,0.527578
1664545413.250484,14664.000000,1664545413.249720,162.000000,-0.928883,0.328820,-1407.000000,1.892757,-0.023038,-123.000000,0.414701,0.056549,75.320000,1.823903,-0.311751,-166.779999,-0.932660,0.623501,-69.940002,-2.169049,0.551559
1664545413.270631,14665.000000,1664545413.269756,150.000000,-0.922070,0.356047,-1286.000000,1.892149,-0.033510,-135.000000,0.415851,0.055501,86.080002,1.816233,-0.311751,-110.290001,-0.918855,0.623501,-72.630005,-2.156777,0.551559
1664545413.290721,14666.000000,1664545413.289839,131.000000,-0.914958,0.357094,-1346.000000,1.891523,-0.030369,-124.000000,0.416906,0.054454,86.080002,1.808563,-0.335732,-115.670006,-0.903515,0.647482,-64.559998,-2.146039,0.575540
1664545413.310431,14667.000000,1664545413.309713,103.000000,-0.907494,0.370708,-1299.000000,1.890802,-0.032463,-130.000000,0.418056,0.059690,96.840004,1.802428,-0.335732,-134.500000,-0.888175,0.671463,-86.080002,-2.132233,0.599521
1664545413.330162,14668.000000,1664545413.329802,93.000000,-0.899843,0.386416,-1243.000000,1.890132,-0.037699,-131.000000,0.419215,0.054454,94.150002,1.794758,-0.359712,-174.850006,-0.872835,0.695444,-61.870003,-2.118428,0.647482
1664545413.350672,14669.000000,1664545413.349761,76.000000,-0.891975,0.396888,-1272.000000,1.889418,-0.035605,-119.000000,0.420375,0.055501,83.389999,1.787088,-0.359712,-164.089996,-0.857495,0.719425,-80.700005,-2.106156,0.647482
1664545413.370130,14670.000000,1664545413.369783,72.000000,-0.883900,0.409454,-1254.000000,1.888628,-0.034558,-131.000000,0.421617,0.070162,80.700005,1.779418,-0.359712,-174.850006,-0.843689,0.743406,-78.010002,-2.092350,0.647482
1664545413.390348,14671.000000,1664545413.389792,63.000000,-0.875628,0.414690,-1210.000000,1.887883,-0.037699,-131.000000,0.422828,0.062832,94.150002,1.771748,-0.359712,-182.919998,-0.825282,0.743406,-67.250000,-2.078544,0.647482
1664545413.410445,14672.000000,1664545413.409908,62.000000,-0.867180,0.422021,-1228.000000,1.887162,-0.040841,-128.000000,0.424102,0.060737,94.150002,1.762544,-0.383693,-182.919998,-0.808408,0.767386,-78.010002,-2.064738,0.671463
1664545413.430667,14673.000000,1664545413.429886,73.000000,-0.858649,0.425162,-1262.000000,1.886373,-0.037699,-121.000000,0.425323,0.062832,96.840004,1.754874,-0.383693,-166.779999,-0.791534,0.791367,-107.600006,-2.049398,0.719425
1664545413.451085,14674.000000,1664545413.449835,88.000000,-0.849912,0.444012,-1233.000000,1.885546,-0.038746,-130.000000,0.426648,0.068068,121.050003,1.747204,-0.383693,-137.190002,-0.774660,0.815348,-67.250000,-2.035593,0.719425
1664545413.470566,14675.000000,1664545413.469863,120.000000,-0.841091,0.442965,-1162.000000,1.884713,-0.046077,-107.000000,0.427963,0.064926,107.600006,1.738000,-0.407674,-164.089996,-0.756253,0.815348,-83.389999,-2.021787,0.695444
1664545413.490579,14676.000000,1664545413.489909,148.000000,-0.832105,0.450295,-1144.000000,1.883848,-0.045029,-114.000000,0.429319,0.067021,118.360001,1.728796,-0.407674,-156.020004,-0.737845,0.839329,-94.150002,-2.006447,0.719425
1664545413.510609,14677.000000,1664545413.509890,173.000000,-0.822818,0.468097,-1235.000000,1.883034,-0.041888,-134.000000,0.430769,0.077493,88.770004,1.719592,-0.407674,-139.880005,-0.719437,0.863310,-99.529999,-1.989573,0.743406
1664545413.531040,14678.000000,1664545413.529922,188.000000,-0.813242,0.482758,-1244.000000,1.882169,-0.041888,-127.000000,0.432239,0.078540,64.559998,1.710389,-0.431655,-147.949997,-0.701029,0.887290,-102.220001,-1.974233,0.767386
1664545413.550958,14679.000000,1664545413.549937,163.000000,-0.803158,0.508938,-1290.000000,1.881285,-0.038746,-121.000000,0.433740,0.078540,48.420002,1.701185,-0.431655,-153.330002,-0.682621,0.887290,-99.529999,-1.957360,0.791367
1664545413.570612,14680.000000,1664545413.569903,149.000000,-0.792712,0.526740,-1271.000000,1.880415,-0.045029,-121.000000,0.435303,0.075398,45.730000,1.693515,-0.431655,-185.610001,-0.662680,0.911271,-102.220001,-1.942020,0.791367
1664545413.590792,14681.000000,1664545413.589929,117.000000,-0.781935,0.544543,-1219.000000,1.879475,-0.050265,-118.000000,0.436856,0.073304,112.980003,1.684311,-0.455636,-156.020004,-0.644272,0.935252,-107.600006,-1.925146,0.791367
1664545413.610633,14682.000000,1664545413.609894,104.000000,-0.770920,0.552920,-1216.000000,1.878529,-0.051313,-117.000000,0.438420,0.078540,45.730000,1.673573,-0.455636,-142.570007,-0.622796,0.935252,-110.290001,-1.908272,0.791367
1664545413.630338,14683.000000,1664545413.629909,89.000000,-0.760246,0.559204,-1219.000000,1.877558,-0.053407,-108.000000,0.439993,0.071209,43.040001,1.662835,-0.479616,-115.670006,-0.602854,0.959233,-91.459999,-1.891398,0.815348
1664545413.650975,14684.000000,1664545413.649976,84.000000,-0.748330,0.571770,-1248.000000,1.876549,-0.052360,-125.000000,0.441650,0.080634,72.630005,1.652097,-0.479616,-139.880005,-0.581379,0.959233,-107.600006,-1.874525,0.839329
1664545413.670449,14685.000000,1664545413.669973,86.000000,-0.737387,0.578053,-1260.000000,1.875553,-0.053407,-120.000000,0.443368,0.083776,51.110001,1.642893,-0.479616,-147.949997,-0.561437,0.983214,-94.150002,-1.857651,0.839329
1664545413.690424,14686.000000,1664545413.689975,83.000000,-0.725140,0.587478,-1249.000000,1.874481,-0.056549,-116.000000,0.445097,0.084823,99.529999,1.632156,-0.503597,-156.020004,-0.539961,1.007195,-104.910004,-1.839243,0.863310
1664545413.710615,14687.000000,1664545413.710038,87.000000,-0.713855,0.593761,-1297.000000,1.873454,-0.054454,-111.000000,0.446857,0.084823,137.190002,1.621418,-0.503597,-129.119995,-0.516952,1.031175,-96.840004,-1.820835,0.911271
1664545413.731015,14688.000000,1664545413.730052,79.000000,-0.701701,0.613658,-1265.000000,1.872345,-0.056549,-104.000000,0.448627,0.086917,134.500000,1.610680,-0.503597,-153.330002,-0.497010,1.055156,-102.220001,-1.802428,0.911271
1664545413.750933,14689.000000,1664545413.750044,85.000000,-0.689381,0.616799,-1290.000000,1.871249,-0.056549,-121.000000,0.450491,0.096342,150.639999,1.599942,-0.503597,-158.710007,-0.474000,1.055156,-96.840004,-1.782486,0.911271
1664545413.770624,14690.000000,1664545413.770028,108.000000,-0.676896,0.627271,-1287.000000,1.870127,-0.059690,-113.000000,0.452344,0.087965,75.320000,1.589204,-0.503597,-134.500000,-0.452524,1.079137,-72.630005,-1.764078,0.911271
1664545413.790879,14691.000000,1664545413.790075,137.000000,-0.664348,0.630413,-1363.000000,1.869006,-0.056549,-114.000000,0.454249,0.094248,150.639999,1.578466,-0.527578,-147.949997,-0.429515,1.079137,-112.980003,-1.744136,0.911271
1664545413.810941,14692.000000,1664545413.810081,165.000000,-0.651656,0.634602,-1376.000000,1.867872,-0.058643,-110.000000,0.456185,0.097389,142.570007,1.566194,-0.527578,-126.430000,-0.408039,1.079137,-88.770004,-1.725728,0.959233
1664545413.830872,14693.000000,1664545413.830066,171.000000,-0.638549,0.659734,-1410.000000,1.866694,-0.059690,-122.000000,0.458173,0.098437,147.949997,1.555457,-0.551559,-169.470001,-0.385029,1.079137,-88.770004,-1.707321,0.959233
1664545413.850963,14694.000000,1664545413.850101,158.000000,-0.625080,0.675442,-1360.000000,1.865441,-0.061785,-123.000000,0.460212,0.102625,134.500000,1.544719,-0.551559,-164.089996,-0.360485,1.103118,-99.529999,-1.687379,0.959233
1664545413.870545,14695.000000,1664545413.870122,126.000000,-0.611166,0.697434,-1387.000000,1.864188,-0.061785,-129.000000,0.462241,0.105767,107.600006,1.533981,-0.551559,-131.809998,-0.335942,1.151080,-107.600006,-1.667437,0.959233
1664545413.890647,14696.000000,1664545413.890094,111.000000,-0.597014,0.704764,-1327.000000,1.862891,-0.065973,-113.000000,0.464291,0.102625,142.570007,1.520175,-0.551559,-102.220001,-0.311398,1.175060,-102.220001,-1.644427,0.983214
1664545413.910975,14697.000000,1664545413.910143,100.000000,-0.582655,0.722566,-1400.000000,1.861644,-0.063879,-133.000000,0.466445,0.107861,180.230011,1.507903,-0.551559,-123.740005,-0.285320,1.175060,-107.600006,-1.624486,1.007195
1664545413.930753,14698.000000,1664545413.930133,106.000000,-0.568202,0.722566,-1439.000000,1.860360,-0.062832,-123.000000,0.468619,0.112050,182.919998,1.497165,-0.551559,-121.050003,-0.262311,1.199041,-88.770004,-1.604544,1.007195
1664545413.950765,14699.000000,1664545413.950210,106.000000,-0.553584,0.736180,-1422.000000,1.859050,-0.069115,-123.000000,0.470793,0.105767,193.680008,1.483359,-0.575540,-123.740005,-0.236233,1.223022,-96.840004,-1.583068,1.007195
1664545413.970673,14700.000000,1664545413.970187,97.000000,-0.538779,0.748746,-1399.000000,1.857753,-0.068068,-124.000000,0.473008,0.109956,180.230011,1.471088,-0.599521,-164.089996,-0.210155,1.247003,-99.529999,-1.561592,1.031175
1664545413.991075,14701.000000,1664545413.990247,86.000000,-0.523716,0.752935,-1359.000000,1.856281,-0.071209,-134.000000,0.475338,0.120428,190.990005,1.458816,-0.599521,-131.809998,-0.184078,1.247003,-94.150002,-1.541651,1.055156
1664545414.010683,14702.000000,1664545414.010172,96.000000,-0.508446,0.759218,-1437.000000,1.854946,-0.068068,-149.000000,0.477708,0.124617,142.570007,1.446544,-0.599521,-121.050003,-0.158000,1.270984,-80.700005,-1.520175,1.055156
1664545414.030785,14703.000000,1664545414.030238,118.000000,-0.493082,0.772832,-1299.000000,1.853462,-0.079587,-132.000000,0.480027,0.112050,193.680008,1.434272,-0.599521,-174.850006,-0.131922,1.270984,-123.740005,-1.497165,1.079137
1664545414.041187,14704.000000,1664545414.040260,135.000000,-0.485442,0.767596,-1350.000000,1.852641,-0.074351,-144.000000,0.481208,0.114145,190.990005,1.426602,-0.599521,-115.670006,-0.118117,1.294965,-118.360001,-1.484893,1.103118
1664545414.060948,14705.000000,1664545414.060219,149.000000,-0.469913,0.781209,-1330.000000,1.851231,-0.074351,-121.000000,0.483516,0.121475,150.639999,1.415864,-0.623501,-118.360001,-0.090505,1.294965,-94.150002,-1.463418,1.127099
1664545414.081175,14706.000000,1664545414.080271,137.000000,-0.454052,0.810531,-1412.000000,1.849803,-0.069115,-137.000000,0.485918,0.121475,188.300003,1.403592,-0.623501,-129.119995,-0.064427,1.318945,-102.220001,-1.441942,1.079137
1664545414.101166,14707.000000,1664545414.100303,125.000000,-0.437840,0.818909,-1372.000000,1.848305,-0.075398,-128.000000,0.488330,0.117286,166.779999,1.391321,-0.647482,-137.190002,-0.038350,1.342926,-118.360001,-1.418932,1.055156
1664545414.120849,14708.000000,1664545414.120321,122.000000,-0.421327,0.829381,-1354.000000,1.846777,-0.076445,-134.000000,0.490794,0.121475,201.750000,1.377515,-0.623501,-107.600006,-0.013806,1.342926,-102.220001,-1.397457,1.103118
1664545414.141100,14709.000000,1664545414.140283,110.000000,-0.404680,0.833569,-1372.000000,1.845248,-0.076445,-139.000000,0.493289,0.123569,190.990005,1.363709,-0.623501,-118.360001,0.012272,1.318945,-75.320000,-1.377515,1.079137
1664545414.160831,14710.000000,1664545414.160321,120.000000,-0.387981,0.835664,-1388.000000,1.843688,-0.074351,-122.000000,0.495743,0.120428,182.919998,1.351437,-0.623501,-147.949997,0.039884,1.294965,-94.150002,-1.357573,1.031175
1664545414.181163,14711.000000,1664545414.180358,114.000000,-0.370298,0.846136,-1345.000000,1.842065,-0.080634,-130.000000,0.498269,0.125664,190.990005,1.342233,-0.599521,-115.670006,0.064427,1.270984,-102.220001,-1.336097,1.007195
1664545414.201277,14712.000000,1664545414.200335,111.000000,-0.354096,0.857655,-1326.000000,1.840549,-0.080634,-115.000000,0.500743,0.121475,190.990005,1.328427,-0.575540,-129.119995,0.088971,1.270984,-96.840004,-1.313088,1.055156
1664545414.220874,14713.000000,1664545414.220342,116.000000,-0.336869,0.861844,-1370.000000,1.838964,-0.077493,-115.000000,0.503300,0.128805,161.400009,1.316156,-0.575540,-112.980003,0.113515,1.247003,-64.559998,-1.296214,1.031175
1664545414.241198,14714.000000,1664545414.240341,127.000000,-0.319570,0.858702,-1366.000000,1.837398,-0.079587,-121.000000,0.505909,0.131947,174.850006,1.303884,-0.575540,-104.910004,0.138058,1.247003,-99.529999,-1.274738,0.983214
1664545414.260957,14715.000000,1664545414.260376,133.000000,-0.302218,0.863938,-1396.000000,1.835844,-0.079587,-132.000000,0.508539,0.135088,139.880005,1.293146,-0.575540,-123.740005,0.161068,1.223022,-118.360001,-1.254796,1.007195
1664545414.291300,14716.000000,1664545414.290359,117.000000,-0.275819,0.890118,-1359.000000,1.833419,-0.082729,-124.000000,0.512452,0.132994,150.639999,1.274738,-0.575540,-137.190002,0.196350,1.199041,-78.010002,-1.225651,0.959233
1664545414.301467,14717.000000,1664545414.300397,93.000000,-0.266884,0.896401,-1342.000000,1.832592,-0.083776,-138.000000,0.513808,0.135088,139.880005,1.270136,-0.575540,-102.220001,0.208621,1.199041,-83.389999,-1.216447,0.935252
1664545414.329989,14718.000000,1664545414.329435,81.000000,-0.239967,0.892212,-1347.000000,1.830124,-0.081681,-132.000000,0.517774,0.130900,126.430000,1.253262,-0.551559,-115.670006,0.243903,1.175060,-86.080002,-1.188835,0.911271
1664545414.350199,14719.000000,1664545414.349434,76.000000,-0.222036,0.892212,-1295.000000,1.828470,-0.086917,-125.000000,0.520393,0.129853,137.190002,1.242525,-0.551559,-99.529999,0.265379,1.175060,-102.220001,-1.168893,0.935252
1664545414.360912,14720.000000,1664545414.360468,91.000000,-0.213122,0.889071,-1283.000000,1.827624,-0.083776,-123.000000,0.521718,0.135088,131.809998,1.236389,-0.551559,-150.639999,0.277651,1.175060,-126.430000,-1.158156,0.959233
1664545414.389929,14721.000000,1664545414.389453,87.000000,-0.186257,0.893260,-1245.000000,1.825124,-0.083776,-124.000000,0.525673,0.129853,137.190002,1.222583,-0.551559,-91.459999,0.309864,1.151080,-110.290001,-1.133612,0.911271
1664545414.410509,14722.000000,1664545414.409478,94.000000,-0.168264,0.899543,-1214.000000,1.823483,-0.083776,-134.000000,0.528375,0.141372,150.639999,1.210311,-0.551559,-123.740005,0.332874,1.127099,-104.910004,-1.115204,0.911271
1664545414.429930,14723.000000,1664545414.429470,114.000000,-0.150353,0.892212,-1149.000000,1.821828,-0.082729,-137.000000,0.531046,0.134041,53.800003,1.199573,-0.551559,-115.670006,0.352816,1.103118,-110.290001,-1.096796,0.935252
1664545414.450627,14724.000000,1664545414.449541,133.000000,-0.132526,0.892212,-1225.000000,1.820181,-0.079587,-124.000000,0.533696,0.129853,45.730000,1.190369,-0.527578,-118.360001,0.374291,1.103118,-102.220001,-1.081457,0.887290
1664545414.470424,14725.000000,1664545414.469491,131.000000,-0.114574,0.900590,-1219.000000,1.818552,-0.079587,-127.000000,0.536212,0.130900,40.350002,1.179631,-0.503597,-99.529999,0.395767,1.079137,-104.910004,-1.064583,0.839329
1664545414.490384,14726.000000,1664545414.489563,107.000000,-0.096488,0.906873,-1184.000000,1.816948,-0.082729,-125.000000,0.538852,0.128805,102.220001,1.170427,-0.503597,-107.600006,0.415709,1.055156,-99.529999,-1.046175,0.839329
1664545414.510219,14727.000000,1664545414.509524,88.000000,-0.078277,0.911062,-1191.000000,1.815306,-0.079587,-138.000000,0.541678,0.136136,43.040001,1.161224,-0.479616,-145.260010,0.437185,1.055156,-107.600006,-1.029301,0.839329
1664545414.530512,14728.000000,1664545414.529541,71.000000,-0.060150,0.902684,-1136.000000,1.813659,-0.081681,-135.000000,0.544184,0.135088,29.590000,1.150486,-0.479616,-121.050003,0.457126,1.031175,-91.459999,-1.013961,0.839329
1664545414.550655,14729.000000,1664545414.549571,81.000000,-0.042188,0.895354,-1189.000000,1.812080,-0.076445,-135.000000,0.546803,0.129853,121.050003,1.141282,-0.479616,-99.529999,0.475534,1.031175,-99.529999,-0.997088,0.815348
1664545414.570539,14730.000000,1664545414.569565,84.000000,-0.024277,0.895354,-1188.000000,1.810501,-0.079587,-129.000000,0.549443,0.127758,112.980003,1.132078,-0.479616,-104.910004,0.495476,1.007195,-99.529999,-0.981748,0.791367
1664545414.590830,14731.000000,1664545414.589575,77.000000,-0.006419,0.886976,-1165.000000,1.808916,-0.078540,-126.000000,0.552021,0.121475,107.600006,1.121340,-0.455636,-91.459999,0.513884,0.983214,-91.459999,-0.966408,0.791367
1664545414.610484,14732.000000,1664545414.609565,84.000000,0.011357,0.881740,-1153.000000,1.807337,-0.080634,-117.000000,0.554557,0.124617,64.559998,1.110602,-0.455636,-142.570007,0.535359,0.983214,-91.459999,-0.949534,0.791367
1664545414.630188,14733.000000,1664545414.629642,111.000000,0.028864,0.869174,-1231.000000,1.805796,-0.075398,-106.000000,0.557083,0.122522,80.700005,1.106000,-0.431655,-99.529999,0.552233,0.959233,-78.010002,-0.935728,0.743406
1664545414.650541,14734.000000,1664545414.649597,107.000000,0.046318,0.873363,-1190.000000,1.804242,-0.077493,-114.000000,0.559620,0.125664,69.940002,1.096796,-0.431655,-107.600006,0.570641,0.935252,-112.980003,-0.917321,0.743406
1664545414.670180,14735.000000,1664545414.669589,83.000000,0.063835,0.875457,-1189.000000,1.802713,-0.076445,-107.000000,0.562166,0.126711,107.600006,1.087592,-0.407674,-118.360001,0.587515,0.935252,-69.940002,-0.905049,0.719425
1664545414.690363,14736.000000,1664545414.689580,76.000000,0.081373,0.873363,-1158.000000,1.801153,-0.078540,-102.000000,0.564672,0.126711,61.870003,1.078389,-0.407674,-99.529999,0.604388,0.911271,-88.770004,-0.889709,0.695444
1664545414.710490,14737.000000,1664545414.709644,70.000000,0.098828,0.864985,-1177.000000,1.799612,-0.073304,-108.000000,0.567208,0.126711,88.770004,1.069185,-0.431655,-83.389999,0.622796,0.887290,-91.459999,-0.877437,0.695444
1664545414.730194,14738.000000,1664545414.729643,74.000000,0.116044,0.847183,-1174.000000,1.798108,-0.075398,-121.000000,0.569765,0.131947,91.459999,1.059981,-0.431655,-94.150002,0.638136,0.863310,-83.389999,-0.863631,0.695444
1664545414.750231,14739.000000,1664545414.749647,73.000000,0.133085,0.846136,-1192.000000,1.796611,-0.073304,-124.000000,0.572291,0.129853,48.420002,1.052311,-0.431655,-78.010002,0.655010,0.839329,-96.840004,-0.848291,0.695444
1664545414.770276,14740.000000,1664545414.769694,66.000000,0.149970,0.840900,-1153.000000,1.795101,-0.075398,-116.000000,0.574755,0.124617,78.010002,1.046175,-0.407674,-115.670006,0.671884,0.839329,-94.150002,-0.836020,0.671463
1664545414.790647,14741.000000,1664545414.789673,60.000000,0.166783,0.844041,-1150.000000,1.793610,-0.073304,-126.000000,0.577230,0.129853,86.080002,1.041573,-0.359712,-72.630005,0.688757,0.815348,-91.459999,-0.822214,0.671463
1664545414.810561,14742.000000,1664545414.809720,79.000000,0.183306,0.822050,-1188.000000,1.792163,-0.071209,-120.000000,0.579694,0.124617,112.980003,1.033903,-0.311751,-142.570007,0.705631,0.815348,-86.080002,-0.809942,0.647482
1664545414.830660,14743.000000,1664545414.829777,98.000000,0.199612,0.810531,-1139.000000,1.790734,-0.075398,-117.000000,0.582075,0.121475,80.700005,1.023165,-0.335732,-110.290001,0.719437,0.815348,-83.389999,-0.797670,0.623501
1664545414.850504,14744.000000,1664545414.849758,99.000000,0.215752,0.802153,-1254.000000,1.789362,-0.067021,-123.000000,0.584466,0.121475,88.770004,1.017029,-0.359712,-83.389999,0.733243,0.791367,-80.700005,-0.786932,0.599521
1664545414.870591,14745.000000,1664545414.869756,91.000000,0.231851,0.808437,-1252.000000,1.787965,-0.070162,-117.000000,0.586816,0.114145,75.320000,1.010893,-0.383693,-121.050003,0.748583,0.767386,-67.250000,-0.773126,0.599521
1664545414.890698,14746.000000,1664545414.889748,74.000000,0.247846,0.794823,-1224.000000,1.786580,-0.071209,-128.000000,0.589197,0.116239,99.529999,1.003223,-0.359712,-91.459999,0.760854,0.743406,-78.010002,-0.762388,0.575540
1664545414.910570,14747.000000,1664545414.909779,70.000000,0.263706,0.786445,-1296.000000,1.785208,-0.067021,-135.000000,0.591579,0.113097,53.800003,0.995554,-0.359712,-64.559998,0.774660,0.719425,-67.250000,-0.751651,0.575540
1664545414.930616,14748.000000,1664545414.929787,61.000000,0.279308,0.766549,-1239.000000,1.783824,-0.070162,-137.000000,0.593887,0.119381,32.279999,0.987884,-0.359712,-61.870003,0.788466,0.719425,-67.250000,-0.740913,0.551559
1664545414.950358,14749.000000,1664545414.949792,63.000000,0.294702,0.768643,-1260.000000,1.782464,-0.069115,-123.000000,0.596113,0.113097,48.420002,0.983282,-0.335732,-78.010002,0.802272,0.695444,-69.940002,-0.728641,0.551559
1664545414.970715,14750.000000,1664545414.969803,59.000000,0.309828,0.753982,-1243.000000,1.781079,-0.069115,-126.000000,0.598329,0.109956,69.940002,0.978680,-0.311751,-80.700005,0.816078,0.671463,-64.559998,-0.717903,0.551559
1664545414.990999,14751.000000,1664545414.989807,55.000000,0.324798,0.738274,-1251.000000,1.779757,-0.067021,-134.000000,0.600534,0.111003,83.389999,0.971010,-0.263789,-67.250000,0.829884,0.671463,-67.250000,-0.707165,0.527578
1664545415.010819,14752.000000,1664545415.009861,68.000000,0.339530,0.726755,-1211.000000,1.778392,-0.070162,-119.000000,0.602697,0.106814,53.800003,0.961806,-0.287770,-72.630005,0.842155,0.671463,-56.490002,-0.697961,0.527578
1664545415.030635,14753.000000,1664545415.029858,67.000000,0.353941,0.713142,-1170.000000,1.777045,-0.068068,-126.000000,0.604830,0.105767,-40.350002,0.957204,-0.335732,-86.080002,0.854427,0.671463,-61.870003,-0.687223,0.503597
1664545415.050659,14754.000000,1664545415.049918,86.000000,0.368124,0.710000,-1235.000000,1.775748,-0.061785,-125.000000,0.606973,0.109956,-24.210001,0.954136,-0.311751,-75.320000,0.865165,0.647482,-56.490002,-0.678020,0.503597
1664545415.070813,14755.000000,1664545415.069882,86.000000,0.382173,0.697434,-1207.000000,1.774457,-0.061785,-128.000000,0.609085,0.102625,48.420002,0.949534,-0.263789,-86.080002,0.877437,0.623501,-48.420002,-0.668816,0.479616
1664545415.090841,14756.000000,1664545415.089876,73.000000,0.396025,0.683820,-1177.000000,1.773198,-0.062832,-127.000000,0.611156,0.104720,53.800003,0.940330,-0.239808,-86.080002,0.888175,0.599521,-48.420002,-0.658078,0.455636
1664545415.110653,14757.000000,1664545415.109868,66.000000,0.409711,0.677537,-1136.000000,1.771926,-0.064926,-117.000000,0.613143,0.098437,34.970001,0.934194,-0.263789,-59.180000,0.898913,0.575540,-48.420002,-0.648874,0.455636
1664545415.130596,14758.000000,1664545415.129899,64.000000,0.423191,0.663923,-1151.000000,1.770685,-0.061785,-116.000000,0.615142,0.102625,-10.760000,0.931126,-0.311751,-78.010002,0.909651,0.551559,-56.490002,-0.639670,0.431655
1664545415.150956,14759.000000,1664545415.149919,51.000000,0.436401,0.654499,-1142.000000,1.769457,-0.059690,-130.000000,0.617140,0.102625,-153.330002,0.926524,-0.311751,-67.250000,0.920389,0.527578,-69.940002,-0.630466,0.431655
1664545415.170842,14760.000000,1664545415.169954,52.000000,0.449331,0.635649,-1185.000000,1.768292,-0.057596,-111.000000,0.619044,0.093201,-293.209991,0.921923,-0.263789,-56.490002,0.929592,0.527578,-43.040001,-0.624330,0.431655
1664545415.190700,14761.000000,1664545415.189954,61.000000,0.462003,0.628319,-1146.000000,1.767133,-0.057596,-112.000000,0.620960,0.097389,-180.230011,0.917321,-0.239808,-80.700005,0.940330,0.503597,-51.110001,-0.616660,0.383693
1664545415.210865,14762.000000,1664545415.209998,57.000000,0.473754,0.615752,-1140.000000,1.765986,-0.058643,-114.000000,0.622823,0.094248,-320.110016,0.912719,-0.215827,-40.350002,0.948000,0.455636,-26.900002,-0.608990,0.359712
1664545415.230810,14763.000000,1664545415.230026,53.000000,0.486467,0.595855,-1067.000000,1.764821,-0.057596,-115.000000,0.624625,0.090059,-72.630005,0.909651,-0.215827,-51.110001,0.955670,0.431655,-13.450001,-0.604388,0.335732
1664545415.250713,14764.000000,1664545415.250008,49.000000,0.498331,0.589572,-1074.000000,1.763725,-0.056549,-98.000000,0.626447,0.084823,-61.870003,0.906583,-0.191847,-34.970001,0.963340,0.407674,-21.520000,-0.599787,0.263789
1664545415.270855,14765.000000,1664545415.269989,64.000000,0.509202,0.566534,-1051.000000,1.762635,-0.055501,-110.000000,0.628217,0.084823,-59.180000,0.903515,-0.167866,-26.900002,0.967942,0.359712,-24.210001,-0.593651,0.239808
1664545415.290548,14766.000000,1664545415.290010,63.000000,0.520341,0.546637,-1027.000000,1.761588,-0.055501,-115.000000,0.629998,0.086917,-72.630005,0.900447,-0.143885,-24.210001,0.974078,0.335732,-18.830000,-0.589049,0.239808
1664545415.310761,14767.000000,1664545415.309976,74.000000,0.531129,0.534071,-1021.000000,1.760548,-0.053407,-118.000000,0.631716,0.087965,-56.490002,0.897379,-0.143885,-26.900002,0.980214,0.311751,-29.590000,-0.582913,0.239808
1664545415.330617,14768.000000,1664545415.330026,69.000000,0.541626,0.516268,-1044.000000,1.759546,-0.049218,-126.000000,0.633445,0.086917,-61.870003,0.894311,-0.143885,-16.139999,0.986350,0.311751,-13.450001,-0.579845,0.239808
1664545415.350852,14769.000000,1664545415.350062,63.000000,0.551845,0.507891,-982.000000,1.758550,-0.051313,-118.000000,0.635071,0.081681,-37.660000,0.891243,-0.143885,-24.210001,0.992486,0.287770,-21.520000,-0.573709,0.239808
1664545415.370883,14770.000000,1664545415.370073,55.000000,0.561721,0.481711,-1027.000000,1.757610,-0.047124,-122.000000,0.636655,0.077493,-48.420002,0.888175,-0.143885,-26.900002,0.998622,0.287770,-5.380000,-0.570641,0.239808
1664545415.390554,14771.000000,1664545415.390062,45.000000,0.571287,0.473333,-1048.000000,1.756701,-0.046077,-125.000000,0.638197,0.072257,-29.590000,0.886641,-0.119904,-2.690000,1.001689,0.263789,-5.380000,-0.566039,0.191847
1664545415.410697,14772.000000,1664545415.410093,37.000000,0.580543,0.457625,-1086.000000,1.755812,-0.039794,-120.000000,0.639667,0.073304,-18.830000,0.883573,-0.119904,-16.139999,1.007825,0.263789,-18.830000,-0.561437,0.191847
1664545415.430791,14773.000000,1664545415.430080,41.000000,0.589384,0.439823,-1147.000000,1.754972,-0.036652,-132.000000,0.641137,0.074351,-18.830000,0.882039,-0.119904,-8.070000,1.012427,0.263789,0.000000,-0.558369,0.191847
1664545415.450774,14774.000000,1664545415.450164,33.000000,0.597873,0.418879,-1057.000000,1.754145,-0.043982,-119.000000,0.642535,0.072257,-51.110001,0.880505,-0.095923,-5.380000,1.018563,0.239808,-13.450001,-0.553767,0.191847
1664545415.470963,14775.000000,1664545415.470104,48.000000,0.606010,0.400029,-1058.000000,1.753331,-0.045029,-128.000000,0.643964,0.069115,-24.210001,0.877437,-0.095923,13.450001,1.021631,0.239808,-2.690000,-0.549165,0.191847
1664545415.491185,14776.000000,1664545415.490103,55.000000,0.613734,0.384322,-1137.000000,1.752560,-0.038746,-130.000000,0.645392,0.063879,0.000000,0.875903,-0.095923,-5.380000,1.026233,0.215827,-8.070000,-0.547631,0.167866
1664545415.510801,14777.000000,1664545415.510136,51.000000,0.621157,0.364425,-1099.000000,1.751739,-0.037699,-133.000000,0.646676,0.065973,2.690000,0.874369,-0.095923,0.000000,1.029301,0.215827,-2.690000,-0.544563,0.119904
1664545415.530781,14778.000000,1664545415.530116,61.000000,0.628227,0.347670,-1059.000000,1.750931,-0.038746,-129.000000,0.647939,0.062832,0.000000,0.872835,-0.071942,13.450001,1.030835,0.191847,0.000000,-0.543029,0.119904
1664545415.551016,14779.000000,1664545415.550094,56.000000,0.634967,0.336150,-1084.000000,1.750229,-0.037699,-114.000000,0.649213,0.062832,0.000000,0.871301,-0.071942,16.139999,1.033903,0.167866,-2.690000,-0.541495,0.095923
1664545415.570497,14780.000000,1664545415.570060,54.000000,0.641375,0.312065,-1135.000000,1.749528,-0.032463,-120.000000,0.650300,0.052360,-5.380000,0.871301,-0.047962,43.040001,1.035437,0.143885,2.690000,-0.539961,0.095923
1664545415.591127,14781.000000,1664545415.590082,49.000000,0.647473,0.299499,-1104.000000,1.748801,-0.030369,-116.000000,0.651418,0.053407,0.000000,0.869767,-0.047962,64.559998,1.036971,0.119904,2.690000,-0.538427,0.047962
1664545415.610478,14782.000000,1664545415.610038,44.000000,0.653188,0.282743,-1089.000000,1.748168,-0.033510,-126.000000,0.652536,0.057596,-2.690000,0.869767,-0.047962,43.040001,1.038505,0.095923,2.690000,-0.536893,0.023981
1664545415.630980,14783.000000,1664545415.630100,35.000000,0.658489,0.252375,-1167.000000,1.747560,-0.027227,-114.000000,0.653561,0.049218,0.000000,0.868233,-0.023981,59.180000,1.038505,0.071942,5.380000,-0.536893,0.023981
1664545415.651065,14784.000000,1664545415.650096,31.000000,0.663386,0.237714,-1055.000000,1.746896,-0.033510,-110.000000,0.654565,0.050265,0.000000,0.868233,-0.023981,99.529999,1.038505,0.047962,8.070000,-0.535359,0.023981
1664545415.670989,14785.000000,1664545415.670060,34.000000,0.667889,0.217817,-1119.000000,1.746345,-0.028274,-107.000000,0.655517,0.042935,0.000000,0.868233,-0.023981,104.910004,1.040039,0.023981,8.070000,-0.536893,0.023981
1664545415.690593,14786.000000,1664545415.690049,44.000000,0.671937,0.192684,-1149.000000,1.745781,-0.025133,-113.000000,0.656501,0.048171,-18.830000,0.868233,0.000000,94.150002,1.040039,0.023981,2.690000,-0.536893,0.000000
1664545415.711175,14787.000000,1664545415.710017,42.000000,0.675685,0.187448,-1216.000000,1.745355,-0.025133,-107.000000,0.657371,0.045029,0.000000,0.868233,0.000000,99.529999,1.040039,0.000000,13.450001,-0.535359,0.000000
1664545415.730908,14788.000000,1664545415.730055,47.000000,0.679132,0.164410,-1125.000000,1.744772,-0.028274,-124.000000,0.658302,0.048171,-5.380000,0.868233,0.000000,104.910004,1.040039,0.000000,2.690000,-0.535359,0.000000
1664545415.750401,14789.000000,1664545415.750017,60.000000,0.682279,0.153938,-1217.000000,1.744334,-0.021991,-122.000000,0.659182,0.043982,-2.690000,0.868233,0.000000,102.220001,1.040039,0.000000,18.830000,-0.536893,0.000000
1664545415.770860,14790.000000,1664545415.770044,91.000000,0.685251,0.138230,-1165.000000,1.743826,-0.025133,-137.000000,0.660073,0.047124,-16.139999,0.868233,0.000000,94.150002,1.040039,0.000000,8.070000,-0.536893,0.000000
1664545415.790897,14791.000000,1664545415.789957,84.000000,0.687911,0.130900,-1322.000000,1.743450,-0.015708,-133.000000,0.660859,0.035605,0.000000,0.869767,0.000000,102.220001,1.040039,0.000000,8.070000,-0.535359,0.000000
1664545415.810477,14792.000000,1664545415.809954,76.000000,0.690334,0.127758,-1140.000000,1.742962,-0.027227,-129.000000,0.661553,0.040841,-21.520000,0.868233,0.000000,102.220001,1.040039,0.000000,2.690000,-0.536893,0.000000
1664545415.830626,14793.000000,1664545415.829964,87.000000,0.692684,0.114145,-1228.000000,1.742498,-0.018850,-114.000000,0.662278,0.034558,0.000000,0.868233,0.000000,102.220001,1.040039,0.000000,10.760000,-0.535359,0.000000
1664545415.850584,14794.000000,1664545415.849926,78.000000,0.694951,0.101578,-1134.000000,1.742066,-0.025133,-115.000000,0.662930,0.029322,0.000000,0.868233,0.000000,94.150002,1.040039,0.000000,8.070000,-0.536893,0.000000
1664545415.870614,14795.000000,1664545415.869942,73.000000,0.696908,0.103673,-1149.000000,1.741608,-0.019897,-129.000000,0.663655,0.036652,0.000000,0.868233,0.000000,96.840004,1.038505,0.000000,10.760000,-0.535359,0.000000
1664545415.890412,14796.000000,1664545415.889915,85.000000,0.698720,0.089012,-1268.000000,1.741314,-0.014661,-120.000000,0.664307,0.028274,0.000000,0.868233,0.000000,99.529999,1.040039,0.000000,10.760000,-0.535359,0.000000
1664545415.910377,14797.000000,1664545415.909908,65.000000,0.700562,0.089012,-1107.000000,1.740894,-0.025133,-112.000000,0.664804,0.028274,0.000000,0.868233,0.000000,99.529999,1.040039,0.000000,0.000000,-0.535359,0.000000
1664545415.930587,14798.000000,1664545415.929905,55.000000,0.702198,0.082729,-1169.000000,1.740493,-0.016755,-121.000000,0.665384,0.031416,0.000000,0.868233,0.000000,94.150002,1.040039,0.000000,0.000000,-0.535359,0.000000
1664545415.950732,14799.000000,1664545415.949905,60.000000,0.703792,0.073304,-1204.000000,1.740211,-0.016755,-119.000000,0.665994,0.027227,0.000000,0.868233,0.000000,94.150002,1.040039,0.000000,0.000000,-0.535359,0.000000
1664545415.970672,14800.000000,1664545415.969887,66.000000,0.705055,0.065973,-1097.000000,1.739804,-0.019897,-119.000000,0.666512,0.027227,0.000000,0.868233,0.000000,99.529999,1.040039,0.000000,0.000000,-0.535359,0.000000
1664545415.990474,14801.000000,1664545415.989881,63.000000,0.706298,0.060737,-1170.000000,1.739478,-0.013614,-122.000000,0.667030,0.027227,0.000000,0.868233,0.000000,99.529999,1.040039,0.000000,0.000000,-0.535359,0.000000
1664545416.010483,14802.000000,1664545416.009790,83.000000,0.707437,0.048171,-1292.000000,1.739284,-0.009425,-124.000000,0.667599,0.027227,0.000000,0.868233,0.000000,99.529999,1.040039,0.000000,21.520000,-0.535359,0.000000
1664545416.030640,14803.000000,1664545416.030259,71.000000,0.708482,0.053407,-1147.000000,1.738965,-0.018850,-130.000000,0.668127,0.025133,0.000000,0.868233,0.000000,99.529999,1.040039,0.000000,0.000000,-0.535359,0.000000
1664545416.050571,14804.000000,1664545416.049801,65.000000,0.709538,0.049218,-1142.000000,1.738607,-0.015708,-107.000000,0.668520,0.016755,0.000000,0.868233,0.000000,96.840004,1.040039,0.000000,18.830000,-0.535359,0.000000
1664545416.071335,14805.000000,1664545416.070276,73.000000,0.710408,0.042935,-1211.000000,1.738357,-0.009425,-124.000000,0.668976,0.025133,0.000000,0.868233,0.000000,102.220001,1.040039,0.000000,0.000000,-0.535359,0.000000
1664545416.090469,14806.000000,1664545416.089826,81.000000,0.711174,0.033510,-1210.000000,1.738144,-0.012566,-114.000000,0.669411,0.018850,0.000000,0.868233,0.000000,43.040001,1.040039,0.000000,0.000000,-0.535359,0.000000
1664545416.110744,14807.000000,1664545416.110269,85.000000,0.711764,0.030369,-1087.000000,1.737812,-0.016755,-122.000000,0.669835,0.020944,0.000000,0.868233,0.000000,43.040001,1.040039,0.000000,0.000000,-0.535359,0.000000
1664545416.130811,14808.000000,1664545416.129879,83.000000,0.712302,0.025133,-1125.000000,1.737536,-0.009425,-107.000000,0.670146,0.011519,0.000000,0.868233,0.000000,0.000000,1.040039,0.000000,0.000000,-0.535359,0.000000
1664545416.150666,14809.000000,1664545416.150315,70.000000,0.712768,0.019897,-1190.000000,1.737373,-0.005236,-117.000000,0.670487,0.016755,0.000000,0.868233,0.000000,2.690000,1.040039,0.000000,-2.690000,-0.535359,0.000000
1664545416.170736,14810.000000,1664545416.169839,67.000000,0.713048,0.008378,-1253.000000,1.737285,-0.003142,-124.000000,0.670839,0.015708,18.830000,0.868233,0.000000,0.000000,1.038505,0.000000,2.690000,-0.536893,0.000000
1664545416.189826,14811.000000,1664545416.189333,49.000000,0.713141,0.002094,-1266.000000,1.737223,-0.003142,-130.000000,0.671129,0.012566,2.690000,0.868233,0.000000,-94.150002,1.036971,0.000000,-43.040001,-0.538427,-0.023981
1664545416.210799,14812.000000,1664545416.209879,4.000000,0.713131,0.000000,-1195.000000,1.737104,-0.006283,-127.000000,0.671326,0.006283,0.000000,0.869767,0.000000,-64.559998,1.033903,-0.047962,-72.630005,-0.541495,-0.071942
1664545416.230208,14813.000000,1664545416.229321,-42.000000,0.713027,-0.009425,-1115.000000,1.736966,-0.006283,-130.000000,0.671450,0.004189,0.000000,0.871301,0.023981,-10.760000,1.030835,-0.095923,-88.770004,-0.546097,-0.143885
1664545416.250287,14814.000000,1664545416.249881,-37.000000,0.712468,-0.036652,-1086.000000,1.736859,-0.003142,-135.000000,0.671512,0.001047,0.000000,0.872835,0.047962,-37.660000,1.024699,-0.167866,-86.080002,-0.550699,-0.191847
1664545416.270095,14815.000000,1664545416.269399,-60.000000,0.711578,-0.050265,-1051.000000,1.736841,0.000000,-145.000000,0.671512,0.000000,-10.760000,0.875903,0.047962,-10.760000,1.020097,-0.215827,-67.250000,-0.555301,-0.191847
1664545416.290668,14816.000000,1664545416.289867,-77.000000,0.710304,-0.069115,-976.000000,1.736841,0.000000,-161.000000,0.671512,0.000000,-18.830000,0.878971,0.071942,18.830000,1.013961,-0.239808,-64.559998,-0.558369,-0.191847
1664545416.310007,14817.000000,1664545416.309374,-98.000000,0.708813,-0.073304,-879.000000,1.736847,0.000000,-182.000000,0.671512,0.000000,-21.520000,0.882039,0.095923,43.040001,1.007825,-0.263789,-86.080002,-0.562971,-0.191847
1664545416.330628,14818.000000,1664545416.329891,-129.000000,0.707033,-0.087965,-762.000000,1.736853,0.000000,-210.000000,0.671512,0.000000,-21.520000,0.883573,0.119904,59.180000,1.001689,-0.263789,-99.529999,-0.567573,-0.215827
1664545416.349788,14819.000000,1664545416.349394,-123.000000,0.704973,-0.113097,-671.000000,1.736903,0.002094,-240.000000,0.671502,0.000000,-21.520000,0.886641,0.119904,56.490002,0.995554,-0.263789,-121.050003,-0.572175,-0.215827
1664545416.370657,14820.000000,1664545416.369872,-128.000000,0.702633,-0.124617,-557.000000,1.736985,0.003142,-271.000000,0.671440,-0.002094,-10.760000,0.889709,0.119904,53.800003,0.989418,-0.287770,-137.190002,-0.578311,-0.215827
1664545416.389929,14821.000000,1664545416.389398,-118.000000,0.699869,-0.137183,-453.000000,1.737079,0.004189,-305.000000,0.671378,-0.002094,-16.139999,0.892777,0.119904,75.320000,0.984816,-0.287770,-110.290001,-0.582913,-0.239808
1664545416.410307,14822.000000,1664545416.409912,-125.000000,0.696970,-0.151844,-359.000000,1.737216,0.006283,-343.000000,0.671316,-0.002094,-5.380000,0.895845,0.119904,64.559998,0.978680,-0.287770,-161.400009,-0.587515,-0.239808
1664545416.430336,14823.000000,1664545416.429461,-122.000000,0.693647,-0.160221,-262.000000,1.737373,0.006283,-382.000000,0.671233,-0.003142,-10.760000,0.898913,0.119904,88.770004,0.971010,-0.287770,-112.980003,-0.593651,-0.239808
1664545416.441005,14824.000000,1664545416.440207,-116.000000,0.692042,-0.162316,-197.000000,1.737448,0.006283,-404.000000,0.671202,-0.002094,-18.830000,0.900447,0.119904,83.389999,0.966408,-0.287770,-121.050003,-0.596719,-0.239808
1664545416.470303,14825.000000,1664545416.469429,-72.000000,0.686628,-0.184307,-51.000000,1.737680,0.006283,-468.000000,0.671098,-0.002094,-18.830000,0.906583,0.143885,80.700005,0.957204,-0.311751,-72.630005,-0.604388,-0.263789
1664545416.490835,14826.000000,1664545416.489951,-76.000000,0.682942,-0.183260,-39.000000,1.737931,0.012566,-514.000000,0.671005,-0.003142,-26.900002,0.909651,0.167866,64.559998,0.949534,-0.311751,-357.770020,-0.612058,-0.263789
1664545416.510280,14827.000000,1664545416.509496,-74.000000,0.679018,-0.186401,13.000000,1.738206,0.015708,-558.000000,0.670881,-0.006283,-34.970001,0.914253,0.167866,96.840004,0.940330,-0.335732,-112.980003,-0.618194,-0.287770
1664545416.520845,14828.000000,1664545416.520220,-82.000000,0.677113,-0.191637,27.000000,1.738363,0.016755,-575.000000,0.670757,-0.011519,-32.279999,0.915787,0.167866,131.809998,0.937262,-0.335732,-164.089996,-0.622796,-0.311751
1664545416.550301,14829.000000,1664545416.549513,-91.000000,0.671005,-0.207345,16.000000,1.738946,0.019897,-609.000000,0.670270,-0.021991,-26.900002,0.923456,0.191847,123.740005,0.923456,-0.383693,-56.490002,-0.635068,-0.359712
1664545416.570923,14830.000000,1664545416.569994,-93.000000,0.666812,-0.216770,9.000000,1.739390,0.021991,-626.000000,0.669752,-0.025133,-69.940002,0.929592,0.215827,110.290001,0.912719,-0.431655,21.520000,-0.644272,-0.407674
1664545416.590158,14831.000000,1664545416.589498,-105.000000,0.662257,-0.217817,6.000000,1.739835,0.021991,-626.000000,0.669183,-0.036652,-61.870003,0.932660,0.239808,131.809998,0.901981,-0.455636,21.520000,-0.651942,-0.431655
1664545416.601082,14832.000000,1664545416.600243,-110.000000,0.660011,-0.226195,6.000000,1.740067,0.023038,-629.000000,0.668759,-0.036652,-61.870003,0.934194,0.239808,145.260010,0.895845,-0.479616,10.760000,-0.658078,-0.431655
1664545416.630416,14833.000000,1664545416.629513,-112.000000,0.652639,-0.246091,-18.000000,1.740819,0.026180,-642.000000,0.667661,-0.034558,-75.320000,0.941864,0.215827,137.190002,0.878971,-0.527578,-13.450001,-0.670350,-0.431655
1664545416.641079,14834.000000,1664545416.640206,-116.000000,0.650144,-0.250280,-10.000000,1.741063,0.023038,-618.000000,0.667164,-0.050265,-123.740005,0.946466,0.215827,174.850006,0.872835,-0.527578,34.970001,-0.676486,-0.431655
1664545416.670048,14835.000000,1664545416.669497,-111.000000,0.642017,-0.278555,-51.000000,1.741865,0.026180,-659.000000,0.665932,-0.034558,-69.940002,0.954136,0.263789,185.610001,0.854427,-0.551559,43.040001,-0.690291,-0.431655
1664545416.680645,14836.000000,1664545416.680222,-117.000000,0.639284,-0.275413,-41.000000,1.742128,0.026180,-646.000000,0.665446,-0.045029,-72.630005,0.957204,0.287770,180.230011,0.848291,-0.551559,40.350002,-0.696427,-0.455636
1664545416.710028,14837.000000,1664545416.709531,-118.000000,0.630360,-0.298451,-43.000000,1.742968,0.027227,-648.000000,0.664038,-0.045029,-64.559998,0.966408,0.287770,182.919998,0.831418,-0.575540,48.420002,-0.711767,-0.479616
1664545416.721109,14838.000000,1664545416.720251,-109.000000,0.627368,-0.301593,-37.000000,1.743244,0.026180,-631.000000,0.663489,-0.051313,-69.940002,0.971010,0.287770,212.510010,0.823748,-0.599521,26.900002,-0.717903,-0.503597
1664545416.750202,14839.000000,1664545416.749484,-104.000000,0.617750,-0.314159,-11.000000,1.744083,0.027227,-641.000000,0.661946,-0.045029,-86.080002,0.980214,0.311751,161.400009,0.805340,-0.599521,53.800003,-0.734777,-0.527578
1664545416.761008,14840.000000,1664545416.760241,-105.000000,0.614562,-0.317301,-13.000000,1.744365,0.028274,-629.000000,0.661398,-0.055501,-72.630005,0.984816,0.311751,220.580002,0.797670,-0.623501,26.900002,-0.740913,-0.527578
1664545416.790060,14841.000000,1664545416.789542,-107.000000,0.604302,-0.333009,-38.000000,1.745305,0.031416,-623.000000,0.659855,-0.058643,-83.389999,0.995554,0.335732,139.880005,0.776194,-0.647482,56.490002,-0.757787,-0.551559
1664545416.800630,14842.000000,1664545416.800242,-107.000000,0.600855,-0.351858,-50.000000,1.745618,0.031416,-619.000000,0.659203,-0.059690,-104.910004,1.000155,0.335732,199.059998,0.768524,-0.647482,75.320000,-0.763922,-0.551559
1664545416.829896,14843.000000,1664545416.829539,-105.000000,0.589901,-0.365472,-15.000000,1.746589,0.031416,-627.000000,0.657484,-0.055501,-64.559998,1.007825,0.335732,188.300003,0.747049,-0.695444,18.830000,-0.782330,-0.575540
1664545416.850423,14844.000000,1664545416.849996,-102.000000,0.582541,-0.376991,-40.000000,1.747260,0.034558,-645.000000,0.656387,-0.049218,-88.770004,1.013961,0.311751,177.540009,0.730175,-0.719425,8.070000,-0.796136,-0.599521
1664545416.870243,14845.000000,1664545416.869534,-100.000000,0.574538,-0.382227,-74.000000,1.748005,0.036652,-628.000000,0.655227,-0.058643,-121.050003,1.021631,0.287770,207.130005,0.714835,-0.743406,5.380000,-0.809942,-0.623501
1664545416.890547,14846.000000,1664545416.890051,-115.000000,0.566711,-0.397935,-76.000000,1.748726,0.035605,-647.000000,0.654058,-0.054454,-121.050003,1.032369,0.311751,193.680008,0.699495,-0.767386,0.000000,-0.822214,-0.623501
1664545416.910148,14847.000000,1664545416.909563,-111.000000,0.558274,-0.408407,-57.000000,1.749490,0.035605,-667.000000,0.653022,-0.050265,-129.119995,1.041573,0.383693,185.610001,0.682621,-0.791367,-8.070000,-0.836020,-0.647482
1664545416.930300,14848.000000,1664545416.930018,-115.000000,0.550002,-0.419926,-45.000000,1.750223,0.036652,-665.000000,0.651884,-0.060737,-102.220001,1.050777,0.431655,220.580002,0.665748,-0.791367,69.940002,-0.851359,-0.647482
1664545416.949972,14849.000000,1664545416.949557,-108.000000,0.540995,-0.436681,-60.000000,1.751019,0.038746,-666.000000,0.650538,-0.062832,-72.630005,1.056913,0.431655,174.850006,0.650408,-0.791367,0.000000,-0.865165,-0.671463
1664545416.970359,14850.000000,1664545416.970050,-111.000000,0.532216,-0.442965,-55.000000,1.751802,0.039794,-675.000000,0.649244,-0.065973,-94.150002,1.064583,0.383693,255.550003,0.632000,-0.791367,75.320000,-0.878971,-0.695444
1664545416.990244,14851.000000,1664545416.989555,-106.000000,0.522702,-0.462861,-53.000000,1.752642,0.039794,-667.000000,0.647908,-0.072257,-102.220001,1.072253,0.359712,190.990005,0.613592,-0.815348,80.700005,-0.894311,-0.695444
1664545417.010760,14852.000000,1664545417.010063,-108.000000,0.513425,-0.469145,-76.000000,1.753475,0.041888,-635.000000,0.646303,-0.080634,-139.880005,1.081457,0.359712,209.820007,0.595185,-0.839329,91.459999,-0.909651,-0.695444
1664545417.030431,14853.000000,1664545417.029620,-135.000000,0.503601,-0.472286,-74.000000,1.754364,0.042935,-645.000000,0.644833,-0.078540,-126.430000,1.092194,0.383693,201.750000,0.578311,-0.863310,88.770004,-0.923456,-0.719425
1664545417.050614,14854.000000,1664545417.050201,-131.000000,0.493973,-0.484852,-71.000000,1.755242,0.043982,-638.000000,0.643208,-0.081681,-104.910004,1.101398,0.431655,204.440002,0.558369,-0.887290,96.840004,-0.941864,-0.719425
1664545417.070358,14855.000000,1664545417.069768,-132.000000,0.483568,-0.500560,-35.000000,1.756156,0.042935,-622.000000,0.641603,-0.080634,-112.980003,1.109068,0.455636,190.990005,0.539961,-0.887290,107.600006,-0.957204,-0.743406
1664545417.089973,14856.000000,1664545417.089380,-118.000000,0.473319,-0.518363,-50.000000,1.757052,0.046077,-621.000000,0.640040,-0.084823,-131.809998,1.116738,0.431655,204.440002,0.520020,-0.911271,107.600006,-0.972544,-0.767386
1664545417.110526,14857.000000,1664545417.109899,-112.000000,0.462842,-0.526740,-47.000000,1.758030,0.047124,-626.000000,0.638342,-0.079587,-145.260010,1.127476,0.407674,185.610001,0.500078,-0.959233,118.360001,-0.989418,-0.767386
1664545417.129964,14858.000000,1664545417.129564,-110.000000,0.451537,-0.543496,-55.000000,1.758988,0.048171,-654.000000,0.636903,-0.069115,-123.740005,1.141282,0.431655,199.059998,0.481670,-0.959233,118.360001,-1.006291,-0.791367
1664545417.140846,14859.000000,1664545417.140277,-111.000000,0.446153,-0.538260,-64.000000,1.759477,0.049218,-636.000000,0.636033,-0.078540,-121.050003,1.145884,0.455636,188.300003,0.469398,-0.959233,112.980003,-1.013961,-0.791367
1664545417.170562,14860.000000,1664545417.169667,-126.000000,0.429092,-0.558156,-87.000000,1.761043,0.052360,-649.000000,0.633632,-0.073304,-107.600006,1.156622,0.479616,217.889999,0.440253,-0.983214,118.360001,-1.040039,-0.815348
1664545417.190900,14861.000000,1664545417.190201,-122.000000,0.417797,-0.574911,-77.000000,1.762071,0.050265,-648.000000,0.631923,-0.080634,-129.119995,1.167359,0.455636,228.650009,0.418777,-1.007195,131.809998,-1.058447,-0.839329
1664545417.210210,14862.000000,1664545417.209780,-119.000000,0.405674,-0.581195,-57.000000,1.763142,0.053407,-647.000000,0.630226,-0.080634,-126.430000,1.178097,0.431655,199.059998,0.397301,-1.031175,104.910004,-1.075321,-0.863310
1664545417.229999,14863.000000,1664545417.229361,-119.000000,0.393840,-0.597950,-64.000000,1.764201,0.052360,-654.000000,0.628590,-0.084823,-153.330002,1.190369,0.479616,185.610001,0.375825,-1.031175,110.290001,-1.093728,-0.863310
1664545417.250611,14864.000000,1664545417.249938,-121.000000,0.381831,-0.604233,-55.000000,1.765335,0.053407,-638.000000,0.626685,-0.093201,-142.570007,1.202641,0.527578,188.300003,0.352816,-1.055156,126.430000,-1.113670,-0.887290
1664545417.270063,14865.000000,1664545417.269490,-109.000000,0.368963,-0.618894,-31.000000,1.766431,0.054454,-641.000000,0.624925,-0.095295,-99.529999,1.211845,0.551559,196.370010,0.331340,-1.079137,147.949997,-1.132078,-0.911271
1664545417.280610,14866.000000,1664545417.280251,-113.000000,0.362761,-0.619941,-70.000000,1.767001,0.056549,-638.000000,0.623921,-0.092153,-123.740005,1.216447,0.551559,209.820007,0.320602,-1.079137,147.949997,-1.141282,-0.935252
1664545417.310126,14867.000000,1664545417.309639,-116.000000,0.343226,-0.630413,-32.000000,1.768762,0.056549,-659.000000,0.621157,-0.090059,-150.639999,1.231787,0.503597,158.710007,0.286854,-1.079137,104.910004,-1.168893,-0.911271
1664545417.330686,14868.000000,1664545417.330201,-130.000000,0.330409,-0.644027,-46.000000,1.769908,0.058643,-630.000000,0.619086,-0.101578,-161.400009,1.244058,0.503597,225.960007,0.262311,-1.103118,118.360001,-1.187301,-0.911271
1664545417.350163,14869.000000,1664545417.349770,-139.000000,0.316754,-0.656593,-38.000000,1.771149,0.059690,-635.000000,0.617140,-0.099484,-137.190002,1.257864,0.551559,174.850006,0.239301,-1.127099,147.949997,-1.207243,-0.935252
1664545417.371005,14870.000000,1664545417.370317,-134.000000,0.303419,-0.664970,-37.000000,1.772358,0.061785,-622.000000,0.614955,-0.105767,-164.089996,1.270136,0.599521,236.720001,0.214757,-1.151080,123.740005,-1.228719,-0.935252
1664545417.390300,14871.000000,1664545417.389917,-115.000000,0.289764,-0.690103,-60.000000,1.773674,0.062832,-622.000000,0.612916,-0.103673,-112.980003,1.280874,0.599521,188.300003,0.191748,-1.151080,112.980003,-1.248660,-0.935252
1664545417.409878,14872.000000,1664545417.409485,-118.000000,0.275208,-0.697434,-27.000000,1.774927,0.063879,-591.000000,0.610711,-0.105767,-121.050003,1.288544,0.551559,172.160004,0.167204,-1.175060,102.220001,-1.268602,-0.959233
1664545417.420729,14873.000000,1664545417.420257,-112.000000,0.268230,-0.698481,-22.000000,1.775553,0.062832,-611.000000,0.609561,-0.101578,-126.430000,1.294680,0.527578,169.470001,0.154932,-1.175060,134.500000,-1.279340,-0.959233
1664545417.450397,14874.000000,1664545417.449614,-124.000000,0.246375,-0.710000,-39.000000,1.777565,0.067021,-621.000000,0.606414,-0.100531,-156.020004,1.316156,0.527578,158.710007,0.118117,-1.175060,118.360001,-1.310020,-1.007195
1664545417.470805,14875.000000,1664545417.470124,-135.000000,0.232006,-0.726755,8.000000,1.778880,0.063879,-594.000000,0.604168,-0.115192,-174.850006,1.331495,0.599521,209.820007,0.092039,-1.175060,134.500000,-1.331495,-1.007195
1664545417.490320,14876.000000,1664545417.489728,-125.000000,0.216622,-0.733038,-41.000000,1.780309,0.068068,-618.000000,0.602004,-0.106814,-110.290001,1.342233,0.623501,193.680008,0.067495,-1.199041,112.980003,-1.351437,-1.007195
1664545417.510764,14877.000000,1664545417.510294,-114.000000,0.201703,-0.744557,-27.000000,1.781668,0.067021,-600.000000,0.599654,-0.109956,-91.459999,1.349903,0.575540,196.370010,0.039884,-1.223022,142.570007,-1.374447,-1.031175
1664545417.530432,14878.000000,1664545417.529876,-113.000000,0.186599,-0.762360,-25.000000,1.783122,0.070162,-596.000000,0.597345,-0.117286,-164.089996,1.363709,0.527578,172.160004,0.015340,-1.247003,134.500000,-1.395923,-1.031175
1664545417.549900,14879.000000,1664545417.549452,-137.000000,0.170666,-0.762360,-18.000000,1.784525,0.070162,-592.000000,0.595036,-0.116239,-182.919998,1.380583,0.551559,166.779999,-0.010738,-1.247003,129.119995,-1.417398,-1.055156
1664545417.570876,14880.000000,1664545417.570005,-153.000000,0.155385,-0.764454,-30.000000,1.785954,0.072257,-601.000000,0.592676,-0.118333,-134.500000,1.392855,0.623501,164.089996,-0.038350,-1.270984,137.190002,-1.440408,-1.079137
1664545417.590293,14881.000000,1664545417.589565,-145.000000,0.139017,-0.784351,-41.000000,1.787501,0.074351,-620.000000,0.590429,-0.111003,-83.389999,1.403592,0.671463,185.610001,-0.062893,-1.270984,112.980003,-1.461884,-1.079137
1664545417.600687,14882.000000,1664545417.600308,-144.000000,0.131087,-0.799012,-26.000000,1.788228,0.072257,-590.000000,0.589229,-0.124617,-83.389999,1.408194,0.647482,247.480011,-0.078233,-1.294965,131.809998,-1.472622,-1.055156
1664545417.630510,14883.000000,1664545417.629753,-119.000000,0.106095,-0.814720,-45.000000,1.790552,0.075398,-610.000000,0.585553,-0.114145,-209.820007,1.429670,0.575540,161.400009,-0.116583,-1.294965,107.600006,-1.504835,-1.055156
1664545417.651129,14884.000000,1664545417.650284,-140.000000,0.089893,-0.809484,-76.000000,1.792075,0.077493,-638.000000,0.583151,-0.105767,-153.330002,1.445010,0.623501,215.200012,-0.142660,-1.294965,129.119995,-1.524777,-1.055156
1664545417.670702,14885.000000,1664545417.669834,-145.000000,0.072697,-0.817861,-56.000000,1.793697,0.074351,-623.000000,0.580822,-0.120428,-131.809998,1.454214,0.671463,188.300003,-0.167204,-1.270984,115.670006,-1.546253,-1.055156
1664545417.690329,14886.000000,1664545417.689411,-130.000000,0.056050,-0.833569,-61.000000,1.795226,0.076445,-633.000000,0.578441,-0.122522,-134.500000,1.464952,0.623501,123.740005,-0.190214,-1.247003,123.740005,-1.567728,-1.055156
1664545417.701147,14887.000000,1664545417.700230,-134.000000,0.047685,-0.836711,-63.000000,1.795991,0.076445,-637.000000,0.577074,-0.125664,-182.919998,1.472622,0.575540,164.089996,-0.204019,-1.223022,137.190002,-1.580000,-1.055156
1664545417.730175,14888.000000,1664545417.729564,-119.000000,0.021472,-0.847183,-83.000000,1.798409,0.078540,-656.000000,0.573503,-0.121475,-137.190002,1.489495,0.575540,174.850006,-0.239301,-1.175060,112.980003,-1.609146,-1.007195
1664545417.741265,14889.000000,1664545417.740363,-129.000000,0.012951,-0.851372,-63.000000,1.799199,0.078540,-671.000000,0.572188,-0.119381,-150.639999,1.495631,0.575540,188.300003,-0.251573,-1.151080,150.639999,-1.619884,-0.983214
1664545417.770529,14890.000000,1664545417.769683,-158.000000,-0.013386,-0.845088,-55.000000,1.801604,0.078540,-672.000000,0.568575,-0.126711,-137.190002,1.514039,0.575540,207.130005,-0.289922,-1.175060,139.880005,-1.650563,-0.959233
1664545417.790940,14891.000000,1664545417.790198,-140.000000,-0.030624,-0.863938,-44.000000,1.803177,0.079587,-668.000000,0.566038,-0.127758,-134.500000,1.526311,0.575540,228.650009,-0.312932,-1.199041,156.020004,-1.668971,-0.959233
1664545417.810373,14892.000000,1664545417.809812,-122.000000,-0.048989,-0.873363,-79.000000,1.804862,0.081681,-704.000000,0.563554,-0.126711,-118.360001,1.535515,0.551559,188.300003,-0.337476,-1.199041,123.740005,-1.688913,-0.959233
1664545417.830040,14893.000000,1664545417.829414,-114.000000,-0.066558,-0.876504,-63.000000,1.806479,0.079587,-706.000000,0.561069,-0.127758,-134.500000,1.547787,0.527578,209.820007,-0.362019,-1.175060,131.809998,-1.707321,-0.935252
1664545417.850588,14894.000000,1664545417.849925,-117.000000,-0.084054,-0.875457,-64.000000,1.808151,0.080634,-717.000000,0.558481,-0.123569,-123.740005,1.558524,0.503597,199.059998,-0.383495,-1.151080,145.260010,-1.727262,-0.935252
1664545417.870345,14895.000000,1664545417.869503,-131.000000,-0.102410,-0.869174,-101.000000,1.809762,0.079587,-721.000000,0.555903,-0.127758,-121.050003,1.570796,0.527578,212.510010,-0.406505,-1.127099,126.430000,-1.745670,-0.911271
1664545417.880910,14896.000000,1664545417.880273,-138.000000,-0.111230,-0.880693,-102.000000,1.810576,0.081681,-712.000000,0.554598,-0.139277,-164.089996,1.576932,0.527578,199.059998,-0.418777,-1.103118,142.570007,-1.754874,-0.911271
1664545417.910132,14897.000000,1664545417.909696,-125.000000,-0.138624,-0.879646,-98.000000,1.813082,0.079587,-669.000000,0.550312,-0.146608,-110.290001,1.590738,0.527578,174.850006,-0.450990,-1.079137,121.050003,-1.780952,-0.887290
1664545417.930933,14898.000000,1664545417.930226,-120.000000,-0.156379,-0.885929,-95.000000,1.814680,0.080634,-678.000000,0.547383,-0.131947,-139.880005,1.603010,0.503597,209.820007,-0.474000,-1.055156,126.430000,-1.799360,-0.863310
1664545417.950720,14899.000000,1664545417.949775,-146.000000,-0.174020,-0.878599,-88.000000,1.816353,0.076445,-686.000000,0.544712,-0.131947,-123.740005,1.612214,0.503597,177.540009,-0.493942,-1.031175,112.980003,-1.817767,-0.863310
1664545417.969793,14900.000000,1664545417.969367,-146.000000,-0.192500,-0.879646,-112.000000,1.817969,0.080634,-659.000000,0.542041,-0.140324,-99.529999,1.621418,0.503597,180.230011,-0.513884,-1.031175,123.740005,-1.833107,-0.839329
1664545417.990299,14901.000000,1664545417.989930,-123.000000,-0.210255,-0.891165,-91.000000,1.819642,0.078540,-673.000000,0.539287,-0.128805,-129.119995,1.633690,0.503597,156.020004,-0.536893,-1.031175,121.050003,-1.851515,-0.839329
1664545418.010000,14902.000000,1664545418.009517,-104.000000,-0.228962,-0.891165,-102.000000,1.821227,0.079587,-671.000000,0.536636,-0.128805,-131.809998,1.642893,0.479616,153.330002,-0.556835,-1.031175,115.670006,-1.868389,-0.839329
1664545418.030518,14903.000000,1664545418.030130,-113.000000,-0.246696,-0.888024,-104.000000,1.822806,0.078540,-633.000000,0.533769,-0.143466,-150.639999,1.653631,0.479616,199.059998,-0.578311,-1.007195,123.740005,-1.885262,-0.839329
1664545418.050460,14904.000000,1664545418.049748,-132.000000,-0.264296,-0.877552,-126.000000,1.824479,0.081681,-636.000000,0.531046,-0.134041,-137.190002,1.664369,0.479616,137.190002,-0.596719,-0.983214,131.809998,-1.902136,-0.815348
1664545418.069610,14905.000000,1664545418.069333,-120.000000,-0.282755,-0.875457,-57.000000,1.826026,0.075398,-634.000000,0.528323,-0.130900,-126.430000,1.672039,0.479616,164.089996,-0.615126,-0.983214,102.220001,-1.917476,-0.791367
1664545418.090228,14906.000000,1664545418.089978,-111.000000,-0.300376,-0.879646,-69.000000,1.827574,0.076445,-616.000000,0.525497,-0.135088,-126.430000,1.681243,0.455636,150.639999,-0.633534,-0.959233,110.290001,-1.934350,-0.791367
1664545418.110428,14907.000000,1664545418.109620,-117.000000,-0.318783,-0.877552,-9.000000,1.829184,0.076445,-593.000000,0.522836,-0.131947,-131.809998,1.690447,0.455636,166.779999,-0.655010,-0.935252,88.770004,-1.949690,-0.791367
1664545418.130620,14908.000000,1664545418.130226,-109.000000,-0.336176,-0.866032,-64.000000,1.830744,0.078540,-629.000000,0.520196,-0.116239,-131.809998,1.699651,0.431655,161.400009,-0.674952,-0.911271,126.430000,-1.966563,-0.767386
1664545418.150561,14909.000000,1664545418.149859,-131.000000,-0.353330,-0.857655,-23.000000,1.832342,0.075398,-638.000000,0.517794,-0.115192,-121.050003,1.708855,0.431655,156.020004,-0.691825,-0.911271,69.940002,-1.980369,-0.743406
1664545418.170306,14910.000000,1664545418.169475,-124.000000,-0.371313,-0.854513,-42.000000,1.833870,0.076445,-625.000000,0.515444,-0.121475,-107.600006,1.718059,0.431655,158.710007,-0.710233,-0.911271,61.870003,-1.994175,-0.719425
1664545418.181108,14911.000000,1664545418.180285,-122.000000,-0.379937,-0.855560,-29.000000,1.834628,0.075398,-636.000000,0.514067,-0.125664,-110.290001,1.722660,0.431655,190.990005,-0.717903,-0.887290,110.290001,-2.003379,-0.695444
1664545418.210098,14912.000000,1664545418.209732,-108.000000,-0.406554,-0.857655,-84.000000,1.837028,0.078540,-627.000000,0.510320,-0.121475,-96.840004,1.734932,0.431655,123.740005,-0.745515,-0.863310,29.590000,-2.023321,-0.695444
1664545418.229772,14913.000000,1664545418.229352,-115.000000,-0.423439,-0.835664,-32.000000,1.838531,0.074351,-612.000000,0.507835,-0.123569,-91.459999,1.742602,0.407674,123.740005,-0.762388,-0.839329,21.520000,-2.037127,-0.695444
1664545418.250361,14914.000000,1664545418.249920,-118.000000,-0.440211,-0.830428,-63.000000,1.840117,0.075398,-623.000000,0.505257,-0.114145,-99.529999,1.751806,0.407674,158.710007,-0.777728,-0.839329,8.070000,-2.050932,-0.695444
1664545418.269829,14915.000000,1664545418.269532,-105.000000,-0.457686,-0.831475,-12.000000,1.841608,0.072257,-625.000000,0.502835,-0.119381,-80.700005,1.759476,0.407674,145.260010,-0.794602,-0.815348,2.690000,-2.064738,-0.671463
1664545418.290606,14916.000000,1664545418.290169,-103.000000,-0.474240,-0.826239,-75.000000,1.843105,0.074351,-631.000000,0.500360,-0.112050,-80.700005,1.765612,0.383693,169.470001,-0.811476,-0.815348,75.320000,-2.078544,-0.647482
1664545418.310357,14917.000000,1664545418.309874,-110.000000,-0.491446,-0.815767,-56.000000,1.844646,0.072257,-632.000000,0.498062,-0.112050,-72.630005,1.774816,0.383693,139.880005,-0.826816,-0.791367,0.000000,-2.090816,-0.647482
1664545418.330611,14918.000000,1664545418.329526,-104.000000,-0.507680,-0.804248,-73.000000,1.846100,0.072257,-651.000000,0.495836,-0.118333,-88.770004,1.780952,0.359712,139.880005,-0.843689,-0.767386,16.139999,-2.103088,-0.623501
1664545418.341283,14919.000000,1664545418.340267,-114.000000,-0.515703,-0.797965,-63.000000,1.846820,0.071209,-644.000000,0.494542,-0.116239,-83.389999,1.785554,0.359712,139.880005,-0.851359,-0.743406,96.840004,-2.110758,-0.623501
1664545418.370274,14920.000000,1664545418.369696,-112.000000,-0.540239,-0.789587,-66.000000,1.849045,0.071209,-620.000000,0.490929,-0.122522,-64.559998,1.796292,0.359712,123.740005,-0.872835,-0.719425,53.800003,-2.129165,-0.599521
1664545418.389929,14921.000000,1664545418.389313,-103.000000,-0.556027,-0.789587,-63.000000,1.850442,0.071209,-616.000000,0.488527,-0.123569,-86.080002,1.802428,0.335732,172.160004,-0.886641,-0.719425,56.490002,-2.139903,-0.575540
1664545418.410624,14922.000000,1664545418.409956,-98.000000,-0.571670,-0.770737,-66.000000,1.851889,0.069115,-617.000000,0.485980,-0.116239,-69.940002,1.810097,0.335732,123.740005,-0.900447,-0.695444,48.420002,-2.152175,-0.551559
1664545418.430023,14923.000000,1664545418.429582,-102.000000,-0.587841,-0.765501,-56.000000,1.853267,0.069115,-616.000000,0.483785,-0.105767,-78.010002,1.816233,0.335732,99.529999,-0.914253,-0.671463,43.040001,-2.162913,-0.551559
1664545418.451024,14924.000000,1664545418.450187,-102.000000,-0.602936,-0.750841,-95.000000,1.854633,0.069115,-628.000000,0.481560,-0.102625,-99.529999,1.823903,0.335732,118.360001,-0.928058,-0.671463,56.490002,-2.173651,-0.527578
1664545418.470660,14925.000000,1664545418.469805,-104.000000,-0.617833,-0.746652,-118.000000,1.856087,0.068068,-645.000000,0.479479,-0.100531,-75.320000,1.830039,0.335732,51.110001,-0.940330,-0.647482,43.040001,-2.184389,-0.527578
1664545418.490092,14926.000000,1664545418.489436,-102.000000,-0.633331,-0.736180,-66.000000,1.857402,0.065973,-646.000000,0.477439,-0.101578,-64.559998,1.834641,0.311751,110.290001,-0.954136,-0.647482,43.040001,-2.195127,-0.527578
1664545418.500759,14927.000000,1664545418.500243,-90.000000,-0.640630,-0.724661,-63.000000,1.858060,0.064926,-650.000000,0.476321,-0.099484,-67.250000,1.839243,0.311751,121.050003,-0.961806,-0.623501,40.350002,-2.201262,-0.527578
1664545418.530246,14928.000000,1664545418.529697,-90.000000,-0.662971,-0.720472,-65.000000,1.860065,0.064926,-649.000000,0.473267,-0.105767,-75.320000,1.848447,0.311751,61.870003,-0.980214,-0.623501,34.970001,-2.216602,-0.527578
1664545418.550705,14929.000000,1664545418.550282,-98.000000,-0.677093,-0.700575,-95.000000,1.861374,0.065973,-640.000000,0.471072,-0.111003,-72.630005,1.854583,0.311751,104.910004,-0.994020,-0.599521,5.380000,-2.227340,-0.503597
1664545418.570334,14930.000000,1664545418.569942,-127.000000,-0.690882,-0.677537,-96.000000,1.862728,0.064926,-638.000000,0.468815,-0.102625,-67.250000,1.860719,0.287770,72.630005,-1.004757,-0.599521,21.520000,-2.236544,-0.479616
1664545418.589857,14931.000000,1664545418.589493,-119.000000,-0.705118,-0.672301,-87.000000,1.863968,0.062832,-632.000000,0.466703,-0.102625,-53.800003,1.865321,0.287770,45.730000,-1.015495,-0.575540,-2.690000,-2.247282,-0.479616
1664545418.610810,14932.000000,1664545418.610153,-115.000000,-0.718555,-0.671254,-95.000000,1.865215,0.061785,-638.000000,0.464633,-0.097389,-69.940002,1.871457,0.263789,21.520000,-1.026233,-0.551559,2.690000,-2.256486,-0.455636
1664545418.630760,14933.000000,1664545418.629776,-99.000000,-0.731942,-0.660782,-78.000000,1.866500,0.059690,-629.000000,0.462635,-0.105767,-56.490002,1.877593,0.263789,29.590000,-1.038505,-0.527578,0.000000,-2.264156,-0.455636
1664545418.650228,14934.000000,1664545418.649447,-78.000000,-0.745752,-0.652404,-127.000000,1.867728,0.060737,-639.000000,0.460771,-0.091106,-78.010002,1.882195,0.263789,21.520000,-1.050777,-0.527578,-78.010002,-2.273360,-0.431655
1664545418.671132,14935.000000,1664545418.670087,-94.000000,-0.758548,-0.634602,-109.000000,1.868987,0.058643,-668.000000,0.458835,-0.085870,-59.180000,1.888330,0.239808,45.730000,-1.059981,-0.527578,-96.840004,-2.282563,-0.407674
1664545418.690216,14936.000000,1664545418.689677,-90.000000,-0.771727,-0.623083,-119.000000,1.870133,0.057596,-653.000000,0.456951,-0.098437,-59.180000,1.891398,0.239808,75.320000,-1.070719,-0.527578,-88.770004,-2.290233,-0.407674
1664545418.711260,14937.000000,1664545418.710336,-76.000000,-0.783995,-0.609469,-114.000000,1.871267,0.056549,-654.000000,0.454953,-0.086917,-51.110001,1.896000,0.239808,72.630005,-1.079923,-0.503597,-104.910004,-2.297903,-0.359712
1664545418.730565,14938.000000,1664545418.729903,-77.000000,-0.796046,-0.592714,-121.000000,1.872445,0.057596,-638.000000,0.453038,-0.096342,-29.590000,1.900602,0.215827,64.559998,-1.087592,-0.455636,-121.050003,-2.304039,-0.335732
1664545418.750723,14939.000000,1664545418.749564,-69.000000,-0.808407,-0.584336,-136.000000,1.873554,0.054454,-633.000000,0.451133,-0.091106,-13.450001,1.903670,0.215827,34.970001,-1.093728,-0.431655,-220.580002,-2.308641,-0.335732
1664545418.770925,14940.000000,1664545418.770193,-78.000000,-0.819816,-0.566534,-156.000000,1.874638,0.054454,-625.000000,0.449280,-0.091106,-29.590000,1.908272,0.191847,-234.029999,-1.099864,-0.383693,-115.670006,-2.314777,-0.311751
1664545418.790327,14941.000000,1664545418.789719,-72.000000,-0.831504,-0.553968,-100.000000,1.875709,0.050265,-633.000000,0.447561,-0.081681,-8.070000,1.909806,0.167866,-102.220001,-1.107534,-0.335732,-96.840004,-2.319379,-0.287770
1664545418.810049,14942.000000,1664545418.809414,-81.000000,-0.842261,-0.534071,-103.000000,1.876712,0.050265,-624.000000,0.445925,-0.086917,-8.070000,1.912874,0.143885,-215.200012,-1.112136,-0.311751,-96.840004,-2.323981,-0.239808
1664545418.830745,14943.000000,1664545418.830050,-90.000000,-0.852696,-0.508938,-93.000000,1.877689,0.048171,-623.000000,0.444134,-0.084823,0.000000,1.915942,0.119904,-161.400009,-1.119806,-0.287770,-69.940002,-2.328583,-0.239808
